LIN {X 1162.482,Y 1181.074,Z 1.700,A -135.000,B 0.000,C 180.000} C_DIS
LIN {X 1161.854,Y 1181.094,Z 1.700,A -135.000,B 0.000,C 180.000} C_DIS
LIN {X 1160.785,Y 1181.801,Z 1.700,A -135.000,B 0.000,C 180.000} C_DIS
LIN {X 1159.717,Y 1182.808,Z 1.700,A -135.000,B 0.000,C 180.000} C_DIS
LIN {X 1158.649,Y 1183.237,Z 1.700,A -135.000,B 0.000,C 180.000} C_DIS
LIN {X 1157.581,Y 1183.202,Z 1.700,A -135.000,B 0.000,C 180.000} C_DIS
LIN {X 1156.513,Y 1182.495,Z 1.700,A -135.000,B 0.000,C 180.000} C_DIS
LIN {X 1155.445,Y 1181.488,Z 1.700,A -135.000,B 0.000,C 180.000} C_DIS
LIN {X 1154.377,Y 1181.059,Z 1.700,A -135.000,B 0.000,C 180.000} C_DIS
LIN {X 1153.308,Y 1181.094,Z 1.700,A -135.000,B 0.000,C 180.000} C_DIS
LIN {X 1152.240,Y 1181.801,Z 1.700,A -135.000,B 0.000,C 180.000} C_DIS
LIN {X 1152.034,Y 1181.996,Z 1.700,A -135.000,B 0.000,C 180.000} C_DIS
LIN {X 1152.034,Y 1178.359,Z 1.700,A -135.000,B 0.000,C 180.000} C_DIS
LIN {X 1152.240,Y 1178.223,Z 1.700,A -135.000,B 0.000,C 180.000} C_DIS
LIN {X 1153.308,Y 1177.216,Z 1.700,A -135.000,B 0.000,C 180.000} C_DIS
LIN {X 1154.377,Y 1176.786,Z 1.700,A -135.000,B 0.000,C 180.000} C_DIS
LIN {X 1155.445,Y 1176.822,Z 1.700,A -135.000,B 0.000,C 180.000} C_DIS
LIN {X 1156.513,Y 1177.529,Z 1.700,A -135.000,B 0.000,C 180.000} C_DIS
LIN {X 1157.581,Y 1178.536,Z 1.700,A -135.000,B 0.000,C 180.000} C_DIS
LIN {X 1158.649,Y 1178.965,Z 1.700,A -135.000,B 0.000,C 180.000} C_DIS
LIN {X 1159.717,Y 1178.929,Z 1.700,A -135.000,B 0.000,C 180.000} C_DIS
LIN {X 1160.785,Y 1178.223,Z 1.700,A -135.000,B 0.000,C 180.000} C_DIS
LIN {X 1161.854,Y 1177.216,Z 1.700,A -135.000,B 0.000,C 180.000} C_DIS
LIN {X 1162.482,Y 1176.963,Z 1.700,A -135.000,B 0.000,C 180.000} C_DIS
LIN {X 1162.482,Y 1172.529,Z 1.700,A -135.000,B 0.000,C 180.000} C_DIS
LIN {X 1161.854,Y 1172.549,Z 1.700,A -135.000,B 0.000,C 180.000} C_DIS
LIN {X 1160.785,Y 1173.256,Z 1.700,A -135.000,B 0.000,C 180.000} C_DIS
LIN {X 1159.717,Y 1174.263,Z 1.700,A -135.000,B 0.000,C 180.000} C_DIS
LIN {X 1158.649,Y 1174.692,Z 1.700,A -135.000,B 0.000,C 180.000} C_DIS
LIN {X 1157.581,Y 1174.657,Z 1.700,A -135.000,B 0.000,C 180.000} C_DIS
LIN {X 1156.513,Y 1173.950,Z 1.700,A -135.000,B 0.000,C 180.000} C_DIS
LIN {X 1155.445,Y 1172.943,Z 1.700,A -135.000,B 0.000,C 180.000} C_DIS
LIN {X 1154.377,Y 1172.514,Z 1.700,A -135.000,B 0.000,C 180.000} C_DIS
LIN {X 1153.308,Y 1172.549,Z 1.700,A -135.000,B 0.000,C 180.000} C_DIS
LIN {X 1152.240,Y 1173.256,Z 1.700,A -135.000,B 0.000,C 180.000} C_DIS
LIN {X 1152.034,Y 1173.451,Z 1.700,A -135.000,B 0.000,C 180.000} C_DIS
LIN {X 1152.034,Y 1169.814,Z 1.700,A -135.000,B 0.000,C 180.000} C_DIS
LIN {X 1152.240,Y 1169.678,Z 1.700,A -135.000,B 0.000,C 180.000} C_DIS
LIN {X 1153.308,Y 1168.670,Z 1.700,A -135.000,B 0.000,C 180.000} C_DIS
LIN {X 1154.377,Y 1168.241,Z 1.700,A -135.000,B 0.000,C 180.000} C_DIS
LIN {X 1155.445,Y 1168.277,Z 1.700,A -135.000,B 0.000,C 180.000} C_DIS
LIN {X 1156.513,Y 1168.984,Z 1.700,A -135.000,B 0.000,C 180.000} C_DIS
LIN {X 1157.581,Y 1169.991,Z 1.700,A -135.000,B 0.000,C 180.000} C_DIS
LIN {X 1158.649,Y 1170.420,Z 1.700,A -135.000,B 0.000,C 180.000} C_DIS
LIN {X 1159.717,Y 1170.384,Z 1.700,A -135.000,B 0.000,C 180.000} C_DIS
LIN {X 1160.785,Y 1169.678,Z 1.700,A -135.000,B 0.000,C 180.000} C_DIS
LIN {X 1161.854,Y 1168.670,Z 1.700,A -135.000,B 0.000,C 180.000} C_DIS
LIN {X 1162.482,Y 1168.418,Z 1.700,A -135.000,B 0.000,C 180.000} C_DIS
LIN {X 1162.482,Y 1163.983,Z 1.700,A -135.000,B 0.000,C 180.000} C_DIS
LIN {X 1161.854,Y 1164.004,Z 1.700,A -135.000,B 0.000,C 180.000} C_DIS
LIN {X 1160.785,Y 1164.711,Z 1.700,A -135.000,B 0.000,C 180.000} C_DIS
LIN {X 1159.717,Y 1165.718,Z 1.700,A -135.000,B 0.000,C 180.000} C_DIS
LIN {X 1158.649,Y 1166.147,Z 1.700,A -135.000,B 0.000,C 180.000} C_DIS
LIN {X 1157.581,Y 1166.112,Z 1.700,A -135.000,B 0.000,C 180.000} C_DIS
LIN {X 1156.513,Y 1165.405,Z 1.700,A -135.000,B 0.000,C 180.000} C_DIS
LIN {X 1155.445,Y 1164.398,Z 1.700,A -135.000,B 0.000,C 180.000} C_DIS
LIN {X 1154.377,Y 1163.969,Z 1.700,A -135.000,B 0.000,C 180.000} C_DIS
LIN {X 1153.308,Y 1164.004,Z 1.700,A -135.000,B 0.000,C 180.000} C_DIS
LIN {X 1152.240,Y 1164.711,Z 1.700,A -135.000,B 0.000,C 180.000} C_DIS
LIN {X 1152.034,Y 1164.905,Z 1.700,A -135.000,B 0.000,C 180.000} C_DIS
LIN {X 1152.034,Y 1161.269,Z 1.700,A -135.000,B 0.000,C 180.000} C_DIS
LIN {X 1152.240,Y 1161.132,Z 1.700,A -135.000,B 0.000,C 180.000} C_DIS
LIN {X 1153.308,Y 1160.125,Z 1.700,A -135.000,B 0.000,C 180.000} C_DIS
LIN {X 1154.377,Y 1159.696,Z 1.700,A -135.000,B 0.000,C 180.000} C_DIS
LIN {X 1155.445,Y 1159.732,Z 1.700,A -135.000,B 0.000,C 180.000} C_DIS
LIN {X 1156.513,Y 1160.438,Z 1.700,A -135.000,B 0.000,C 180.000} C_DIS
LIN {X 1157.581,Y 1161.446,Z 1.700,A -135.000,B 0.000,C 180.000} C_DIS
LIN {X 1158.649,Y 1161.875,Z 1.700,A -135.000,B 0.000,C 180.000} C_DIS
LIN {X 1159.717,Y 1161.839,Z 1.700,A -135.000,B 0.000,C 180.000} C_DIS
LIN {X 1160.785,Y 1161.132,Z 1.700,A -135.000,B 0.000,C 180.000} C_DIS
LIN {X 1161.854,Y 1160.125,Z 1.700,A -135.000,B 0.000,C 180.000} C_DIS
LIN {X 1162.922,Y 1159.696,Z 1.700,A -135.000,B 0.000,C 180.000} C_DIS
LIN {X 1163.990,Y 1159.732,Z 1.700,A -135.000,B 0.000,C 180.000} C_DIS
LIN {X 1165.058,Y 1160.438,Z 1.700,A -135.000,B 0.000,C 180.000} C_DIS
LIN {X 1166.126,Y 1161.446,Z 1.700,A -135.000,B 0.000,C 180.000} C_DIS
LIN {X 1167.194,Y 1161.875,Z 1.700,A -135.000,B 0.000,C 180.000} C_DIS
LIN {X 1168.262,Y 1161.839,Z 1.700,A -135.000,B 0.000,C 180.000} C_DIS
LIN {X 1169.331,Y 1161.132,Z 1.700,A -135.000,B 0.000,C 180.000} C_DIS
LIN {X 1170.399,Y 1160.125,Z 1.700,A -135.000,B 0.000,C 180.000} C_DIS
LIN {X 1171.467,Y 1159.696,Z 1.700,A -135.000,B 0.000,C 180.000} C_DIS
LIN {X 1172.535,Y 1159.732,Z 1.700,A -135.000,B 0.000,C 180.000} C_DIS
LIN {X 1173.603,Y 1160.438,Z 1.700,A -135.000,B 0.000,C 180.000} C_DIS
LIN {X 1174.671,Y 1161.446,Z 1.700,A -135.000,B 0.000,C 180.000} C_DIS
LIN {X 1175.739,Y 1161.875,Z 1.700,A -135.000,B 0.000,C 180.000} C_DIS
LIN {X 1176.807,Y 1161.839,Z 1.700,A -135.000,B 0.000,C 180.000} C_DIS
LIN {X 1177.876,Y 1161.132,Z 1.700,A -135.000,B 0.000,C 180.000} C_DIS
LIN {X 1178.944,Y 1160.125,Z 1.700,A -135.000,B 0.000,C 180.000} C_DIS
LIN {X 1180.012,Y 1159.696,Z 1.700,A -135.000,B 0.000,C 180.000} C_DIS
LIN {X 1181.080,Y 1159.732,Z 1.700,A -135.000,B 0.000,C 180.000} C_DIS
LIN {X 1182.148,Y 1160.438,Z 1.700,A -135.000,B 0.000,C 180.000} C_DIS
LIN {X 1183.216,Y 1161.446,Z 1.700,A -135.000,B 0.000,C 180.000} C_DIS
LIN {X 1184.285,Y 1161.875,Z 1.700,A -135.000,B 0.000,C 180.000} C_DIS
LIN {X 1185.353,Y 1161.839,Z 1.700,A -135.000,B 0.000,C 180.000} C_DIS
LIN {X 1186.421,Y 1161.132,Z 1.700,A -135.000,B 0.000,C 180.000} C_DIS
LIN {X 1187.489,Y 1160.125,Z 1.700,A -135.000,B 0.000,C 180.000} C_DIS
LIN {X 1188.557,Y 1159.696,Z 1.700,A -135.000,B 0.000,C 180.000} C_DIS
LIN {X 1189.625,Y 1159.732,Z 1.700,A -135.000,B 0.000,C 180.000} C_DIS
LIN {X 1190.693,Y 1160.438,Z 1.700,A -135.000,B 0.000,C 180.000} C_DIS
LIN {X 1191.761,Y 1161.446,Z 1.700,A -135.000,B 0.000,C 180.000} C_DIS
LIN {X 1192.830,Y 1161.875,Z 1.700,A -135.000,B 0.000,C 180.000} C_DIS
LIN {X 1193.898,Y 1161.839,Z 1.700,A -135.000,B 0.000,C 180.000} C_DIS
LIN {X 1194.966,Y 1161.132,Z 1.700,A -135.000,B 0.000,C 180.000} C_DIS
LIN {X 1196.034,Y 1160.125,Z 1.700,A -135.000,B 0.000,C 180.000} C_DIS
LIN {X 1197.102,Y 1159.696,Z 1.700,A -135.000,B 0.000,C 180.000} C_DIS
LIN {X 1198.170,Y 1159.732,Z 1.700,A -135.000,B 0.000,C 180.000} C_DIS
LIN {X 1199.239,Y 1160.438,Z 1.700,A -135.000,B 0.000,C 180.000} C_DIS
LIN {X 1200.307,Y 1161.446,Z 1.700,A -135.000,B 0.000,C 180.000} C_DIS
LIN {X 1201.375,Y 1161.875,Z 1.700,A -135.000,B 0.000,C 180.000} C_DIS
LIN {X 1202.443,Y 1161.839,Z 1.700,A -135.000,B 0.000,C 180.000} C_DIS
LIN {X 1203.511,Y 1161.132,Z 1.700,A -135.000,B 0.000,C 180.000} C_DIS
LIN {X 1204.579,Y 1160.125,Z 1.700,A -135.000,B 0.000,C 180.000} C_DIS
LIN {X 1205.647,Y 1159.696,Z 1.700,A -135.000,B 0.000,C 180.000} C_DIS
LIN {X 1206.715,Y 1159.732,Z 1.700,A -135.000,B 0.000,C 180.000} C_DIS
LIN {X 1207.784,Y 1160.438,Z 1.700,A -135.000,B 0.000,C 180.000} C_DIS
LIN {X 1208.852,Y 1161.446,Z 1.700,A -135.000,B 0.000,C 180.000} C_DIS
LIN {X 1209.920,Y 1161.875,Z 1.700,A -135.000,B 0.000,C 180.000} C_DIS
LIN {X 1210.988,Y 1161.839,Z 1.700,A -135.000,B 0.000,C 180.000} C_DIS
LIN {X 1212.056,Y 1161.132,Z 1.700,A -135.000,B 0.000,C 180.000} C_DIS
LIN {X 1213.124,Y 1160.125,Z 1.700,A -135.000,B 0.000,C 180.000} C_DIS
LIN {X 1214.193,Y 1159.696,Z 1.700,A -135.000,B 0.000,C 180.000} C_DIS
LIN {X 1215.261,Y 1159.732,Z 1.700,A -135.000,B 0.000,C 180.000} C_DIS
LIN {X 1216.329,Y 1160.438,Z 1.700,A -135.000,B 0.000,C 180.000} C_DIS
LIN {X 1217.397,Y 1161.446,Z 1.700,A -135.000,B 0.000,C 180.000} C_DIS
LIN {X 1218.465,Y 1161.875,Z 1.700,A -135.000,B 0.000,C 180.000} C_DIS
LIN {X 1219.533,Y 1161.839,Z 1.700,A -135.000,B 0.000,C 180.000} C_DIS
LIN {X 1220.601,Y 1161.132,Z 1.700,A -135.000,B 0.000,C 180.000} C_DIS
LIN {X 1221.669,Y 1160.125,Z 1.700,A -135.000,B 0.000,C 180.000} C_DIS
LIN {X 1222.738,Y 1159.696,Z 1.700,A -135.000,B 0.000,C 180.000} C_DIS
LIN {X 1223.806,Y 1159.732,Z 1.700,A -135.000,B 0.000,C 180.000} C_DIS
LIN {X 1224.874,Y 1160.438,Z 1.700,A -135.000,B 0.000,C 180.000} C_DIS
LIN {X 1225.942,Y 1161.446,Z 1.700,A -135.000,B 0.000,C 180.000} C_DIS
LIN {X 1227.010,Y 1161.875,Z 1.700,A -135.000,B 0.000,C 180.000} C_DIS
LIN {X 1228.078,Y 1161.839,Z 1.700,A -135.000,B 0.000,C 180.000} C_DIS
LIN {X 1229.146,Y 1161.132,Z 1.700,A -135.000,B 0.000,C 180.000} C_DIS
LIN {X 1230.215,Y 1160.125,Z 1.700,A -135.000,B 0.000,C 180.000} C_DIS
LIN {X 1231.283,Y 1159.696,Z 1.700,A -135.000,B 0.000,C 180.000} C_DIS
LIN {X 1232.351,Y 1159.732,Z 1.700,A -135.000,B 0.000,C 180.000} C_DIS
LIN {X 1233.419,Y 1160.438,Z 1.700,A -135.000,B 0.000,C 180.000} C_DIS
LIN {X 1234.487,Y 1161.446,Z 1.700,A -135.000,B 0.000,C 180.000} C_DIS
LIN {X 1235.555,Y 1161.875,Z 1.700,A -135.000,B 0.000,C 180.000} C_DIS
LIN {X 1236.623,Y 1161.839,Z 1.700,A -135.000,B 0.000,C 180.000} C_DIS
LIN {X 1237.692,Y 1161.132,Z 1.700,A -135.000,B 0.000,C 180.000} C_DIS
LIN {X 1238.760,Y 1160.125,Z 1.700,A -135.000,B 0.000,C 180.000} C_DIS
LIN {X 1239.828,Y 1159.696,Z 1.700,A -135.000,B 0.000,C 180.000} C_DIS
LIN {X 1240.896,Y 1159.732,Z 1.700,A -135.000,B 0.000,C 180.000} C_DIS
LIN {X 1241.964,Y 1160.438,Z 1.700,A -135.000,B 0.000,C 180.000} C_DIS
LIN {X 1243.032,Y 1161.446,Z 1.700,A -135.000,B 0.000,C 180.000} C_DIS
LIN {X 1244.100,Y 1161.875,Z 1.700,A -135.000,B 0.000,C 180.000} C_DIS
LIN {X 1245.169,Y 1161.839,Z 1.700,A -135.000,B 0.000,C 180.000} C_DIS
LIN {X 1246.237,Y 1161.132,Z 1.700,A -135.000,B 0.000,C 180.000} C_DIS
LIN {X 1247.305,Y 1160.125,Z 1.700,A -135.000,B 0.000,C 180.000} C_DIS
LIN {X 1247.966,Y 1159.860,Z 1.700,A -135.000,B 0.000,C 180.000} C_DIS
LIN {X 1247.966,Y 1155.437,Z 1.700,A -135.000,B 0.000,C 180.000} C_DIS
LIN {X 1247.305,Y 1155.459,Z 1.700,A -135.000,B 0.000,C 180.000} C_DIS
LIN {X 1246.237,Y 1156.166,Z 1.700,A -135.000,B 0.000,C 180.000} C_DIS
LIN {X 1245.169,Y 1157.173,Z 1.700,A -135.000,B 0.000,C 180.000} C_DIS
LIN {X 1244.100,Y 1157.602,Z 1.700,A -135.000,B 0.000,C 180.000} C_DIS
LIN {X 1243.032,Y 1157.567,Z 1.700,A -135.000,B 0.000,C 180.000} C_DIS
LIN {X 1241.964,Y 1156.860,Z 1.700,A -135.000,B 0.000,C 180.000} C_DIS
LIN {X 1240.896,Y 1155.853,Z 1.700,A -135.000,B 0.000,C 180.000} C_DIS
LIN {X 1239.828,Y 1155.424,Z 1.700,A -135.000,B 0.000,C 180.000} C_DIS
LIN {X 1238.760,Y 1155.459,Z 1.700,A -135.000,B 0.000,C 180.000} C_DIS
LIN {X 1237.692,Y 1156.166,Z 1.700,A -135.000,B 0.000,C 180.000} C_DIS
LIN {X 1236.623,Y 1157.173,Z 1.700,A -135.000,B 0.000,C 180.000} C_DIS
LIN {X 1235.555,Y 1157.602,Z 1.700,A -135.000,B 0.000,C 180.000} C_DIS
LIN {X 1234.487,Y 1157.567,Z 1.700,A -135.000,B 0.000,C 180.000} C_DIS
LIN {X 1233.419,Y 1156.860,Z 1.700,A -135.000,B 0.000,C 180.000} C_DIS
LIN {X 1232.351,Y 1155.853,Z 1.700,A -135.000,B 0.000,C 180.000} C_DIS
LIN {X 1231.283,Y 1155.424,Z 1.700,A -135.000,B 0.000,C 180.000} C_DIS
LIN {X 1230.215,Y 1155.459,Z 1.700,A -135.000,B 0.000,C 180.000} C_DIS
LIN {X 1229.146,Y 1156.166,Z 1.700,A -135.000,B 0.000,C 180.000} C_DIS
LIN {X 1228.078,Y 1157.173,Z 1.700,A -135.000,B 0.000,C 180.000} C_DIS
LIN {X 1227.010,Y 1157.602,Z 1.700,A -135.000,B 0.000,C 180.000} C_DIS
LIN {X 1225.942,Y 1157.567,Z 1.700,A -135.000,B 0.000,C 180.000} C_DIS
LIN {X 1224.874,Y 1156.860,Z 1.700,A -135.000,B 0.000,C 180.000} C_DIS
LIN {X 1223.806,Y 1155.853,Z 1.700,A -135.000,B 0.000,C 180.000} C_DIS
LIN {X 1222.738,Y 1155.424,Z 1.700,A -135.000,B 0.000,C 180.000} C_DIS
LIN {X 1221.669,Y 1155.459,Z 1.700,A -135.000,B 0.000,C 180.000} C_DIS
LIN {X 1220.601,Y 1156.166,Z 1.700,A -135.000,B 0.000,C 180.000} C_DIS
LIN {X 1219.533,Y 1157.173,Z 1.700,A -135.000,B 0.000,C 180.000} C_DIS
LIN {X 1218.465,Y 1157.602,Z 1.700,A -135.000,B 0.000,C 180.000} C_DIS
LIN {X 1217.397,Y 1157.567,Z 1.700,A -135.000,B 0.000,C 180.000} C_DIS
LIN {X 1216.329,Y 1156.860,Z 1.700,A -135.000,B 0.000,C 180.000} C_DIS
LIN {X 1215.261,Y 1155.853,Z 1.700,A -135.000,B 0.000,C 180.000} C_DIS
LIN {X 1214.193,Y 1155.424,Z 1.700,A -135.000,B 0.000,C 180.000} C_DIS
LIN {X 1213.124,Y 1155.459,Z 1.700,A -135.000,B 0.000,C 180.000} C_DIS
LIN {X 1212.056,Y 1156.166,Z 1.700,A -135.000,B 0.000,C 180.000} C_DIS
LIN {X 1210.988,Y 1157.173,Z 1.700,A -135.000,B 0.000,C 180.000} C_DIS
LIN {X 1209.920,Y 1157.602,Z 1.700,A -135.000,B 0.000,C 180.000} C_DIS
LIN {X 1208.852,Y 1157.567,Z 1.700,A -135.000,B 0.000,C 180.000} C_DIS
LIN {X 1207.784,Y 1156.860,Z 1.700,A -135.000,B 0.000,C 180.000} C_DIS
LIN {X 1206.715,Y 1155.853,Z 1.700,A -135.000,B 0.000,C 180.000} C_DIS
LIN {X 1205.647,Y 1155.424,Z 1.700,A -135.000,B 0.000,C 180.000} C_DIS
LIN {X 1204.579,Y 1155.459,Z 1.700,A -135.000,B 0.000,C 180.000} C_DIS
LIN {X 1203.511,Y 1156.166,Z 1.700,A -135.000,B 0.000,C 180.000} C_DIS
LIN {X 1202.443,Y 1157.173,Z 1.700,A -135.000,B 0.000,C 180.000} C_DIS
LIN {X 1201.375,Y 1157.602,Z 1.700,A -135.000,B 0.000,C 180.000} C_DIS
LIN {X 1200.307,Y 1157.567,Z 1.700,A -135.000,B 0.000,C 180.000} C_DIS
LIN {X 1199.239,Y 1156.860,Z 1.700,A -135.000,B 0.000,C 180.000} C_DIS
LIN {X 1198.170,Y 1155.853,Z 1.700,A -135.000,B 0.000,C 180.000} C_DIS
LIN {X 1197.102,Y 1155.424,Z 1.700,A -135.000,B 0.000,C 180.000} C_DIS
LIN {X 1196.034,Y 1155.459,Z 1.700,A -135.000,B 0.000,C 180.000} C_DIS
LIN {X 1194.966,Y 1156.166,Z 1.700,A -135.000,B 0.000,C 180.000} C_DIS
LIN {X 1193.898,Y 1157.173,Z 1.700,A -135.000,B 0.000,C 180.000} C_DIS
LIN {X 1192.830,Y 1157.602,Z 1.700,A -135.000,B 0.000,C 180.000} C_DIS
LIN {X 1191.761,Y 1157.567,Z 1.700,A -135.000,B 0.000,C 180.000} C_DIS
LIN {X 1190.693,Y 1156.860,Z 1.700,A -135.000,B 0.000,C 180.000} C_DIS
LIN {X 1189.625,Y 1155.853,Z 1.700,A -135.000,B 0.000,C 180.000} C_DIS
LIN {X 1188.557,Y 1155.424,Z 1.700,A -135.000,B 0.000,C 180.000} C_DIS
LIN {X 1187.489,Y 1155.459,Z 1.700,A -135.000,B 0.000,C 180.000} C_DIS
LIN {X 1186.421,Y 1156.166,Z 1.700,A -135.000,B 0.000,C 180.000} C_DIS
LIN {X 1185.353,Y 1157.173,Z 1.700,A -135.000,B 0.000,C 180.000} C_DIS
LIN {X 1184.285,Y 1157.602,Z 1.700,A -135.000,B 0.000,C 180.000} C_DIS
LIN {X 1183.216,Y 1157.567,Z 1.700,A -135.000,B 0.000,C 180.000} C_DIS
LIN {X 1182.148,Y 1156.860,Z 1.700,A -135.000,B 0.000,C 180.000} C_DIS
LIN {X 1181.080,Y 1155.853,Z 1.700,A -135.000,B 0.000,C 180.000} C_DIS
LIN {X 1180.012,Y 1155.424,Z 1.700,A -135.000,B 0.000,C 180.000} C_DIS
LIN {X 1178.944,Y 1155.459,Z 1.700,A -135.000,B 0.000,C 180.000} C_DIS
LIN {X 1177.876,Y 1156.166,Z 1.700,A -135.000,B 0.000,C 180.000} C_DIS
LIN {X 1176.807,Y 1157.173,Z 1.700,A -135.000,B 0.000,C 180.000} C_DIS
LIN {X 1175.739,Y 1157.602,Z 1.700,A -135.000,B 0.000,C 180.000} C_DIS
LIN {X 1174.671,Y 1157.567,Z 1.700,A -135.000,B 0.000,C 180.000} C_DIS
LIN {X 1173.603,Y 1156.860,Z 1.700,A -135.000,B 0.000,C 180.000} C_DIS
LIN {X 1172.535,Y 1155.853,Z 1.700,A -135.000,B 0.000,C 180.000} C_DIS
LIN {X 1171.467,Y 1155.424,Z 1.700,A -135.000,B 0.000,C 180.000} C_DIS
LIN {X 1170.399,Y 1155.459,Z 1.700,A -135.000,B 0.000,C 180.000} C_DIS
LIN {X 1169.331,Y 1156.166,Z 1.700,A -135.000,B 0.000,C 180.000} C_DIS
LIN {X 1168.262,Y 1157.173,Z 1.700,A -135.000,B 0.000,C 180.000} C_DIS
LIN {X 1167.194,Y 1157.602,Z 1.700,A -135.000,B 0.000,C 180.000} C_DIS
LIN {X 1166.126,Y 1157.567,Z 1.700,A -135.000,B 0.000,C 180.000} C_DIS
LIN {X 1165.058,Y 1156.860,Z 1.700,A -135.000,B 0.000,C 180.000} C_DIS
LIN {X 1163.990,Y 1155.853,Z 1.700,A -135.000,B 0.000,C 180.000} C_DIS
LIN {X 1162.922,Y 1155.424,Z 1.700,A -135.000,B 0.000,C 180.000} C_DIS
LIN {X 1161.854,Y 1155.459,Z 1.700,A -135.000,B 0.000,C 180.000} C_DIS
LIN {X 1160.785,Y 1156.166,Z 1.700,A -135.000,B 0.000,C 180.000} C_DIS
LIN {X 1159.717,Y 1157.173,Z 1.700,A -135.000,B 0.000,C 180.000} C_DIS
LIN {X 1158.649,Y 1157.602,Z 1.700,A -135.000,B 0.000,C 180.000} C_DIS
LIN {X 1157.581,Y 1157.567,Z 1.700,A -135.000,B 0.000,C 180.000} C_DIS
LIN {X 1156.513,Y 1156.860,Z 1.700,A -135.000,B 0.000,C 180.000} C_DIS
LIN {X 1155.445,Y 1155.853,Z 1.700,A -135.000,B 0.000,C 180.000} C_DIS
LIN {X 1154.377,Y 1155.424,Z 1.700,A -135.000,B 0.000,C 180.000} C_DIS
LIN {X 1153.308,Y 1155.459,Z 1.700,A -135.000,B 0.000,C 180.000} C_DIS
LIN {X 1152.240,Y 1156.166,Z 1.700,A -135.000,B 0.000,C 180.000} C_DIS
LIN {X 1152.034,Y 1156.360,Z 1.700,A -135.000,B 0.000,C 180.000} C_DIS
LIN {X 1152.034,Y 1152.724,Z 1.700,A -135.000,B 0.000,C 180.000} C_DIS
LIN {X 1152.240,Y 1152.587,Z 1.700,A -135.000,B 0.000,C 180.000} C_DIS
LIN {X 1152.827,Y 1152.034,Z 1.700,A -135.000,B 0.000,C 180.000} C_DIS
LIN {X 1156.662,Y 1152.034,Z 1.700,A -135.000,B 0.000,C 180.000} C_DIS
LIN {X 1157.581,Y 1152.900,Z 1.700,A -135.000,B 0.000,C 180.000} C_DIS
LIN {X 1158.649,Y 1153.329,Z 1.700,A -135.000,B 0.000,C 180.000} C_DIS
LIN {X 1159.717,Y 1153.294,Z 1.700,A -135.000,B 0.000,C 180.000} C_DIS
LIN {X 1160.785,Y 1152.587,Z 1.700,A -135.000,B 0.000,C 180.000} C_DIS
LIN {X 1161.372,Y 1152.034,Z 1.700,A -135.000,B 0.000,C 180.000} C_DIS
LIN {X 1165.207,Y 1152.034,Z 1.700,A -135.000,B 0.000,C 180.000} C_DIS
LIN {X 1166.126,Y 1152.900,Z 1.700,A -135.000,B 0.000,C 180.000} C_DIS
LIN {X 1167.194,Y 1153.329,Z 1.700,A -135.000,B 0.000,C 180.000} C_DIS
LIN {X 1168.262,Y 1153.294,Z 1.700,A -135.000,B 0.000,C 180.000} C_DIS
LIN {X 1169.331,Y 1152.587,Z 1.700,A -135.000,B 0.000,C 180.000} C_DIS
LIN {X 1169.917,Y 1152.034,Z 1.700,A -135.000,B 0.000,C 180.000} C_DIS
LIN {X 1173.752,Y 1152.034,Z 1.700,A -135.000,B 0.000,C 180.000} C_DIS
LIN {X 1174.671,Y 1152.900,Z 1.700,A -135.000,B 0.000,C 180.000} C_DIS
LIN {X 1175.739,Y 1153.329,Z 1.700,A -135.000,B 0.000,C 180.000} C_DIS
LIN {X 1176.807,Y 1153.294,Z 1.700,A -135.000,B 0.000,C 180.000} C_DIS
LIN {X 1177.876,Y 1152.587,Z 1.700,A -135.000,B 0.000,C 180.000} C_DIS
LIN {X 1178.463,Y 1152.034,Z 1.700,A -135.000,B 0.000,C 180.000} C_DIS
LIN {X 1182.298,Y 1152.034,Z 1.700,A -135.000,B 0.000,C 180.000} C_DIS
LIN {X 1183.216,Y 1152.900,Z 1.700,A -135.000,B 0.000,C 180.000} C_DIS
LIN {X 1184.285,Y 1153.329,Z 1.700,A -135.000,B 0.000,C 180.000} C_DIS
LIN {X 1185.353,Y 1153.294,Z 1.700,A -135.000,B 0.000,C 180.000} C_DIS
LIN {X 1186.421,Y 1152.587,Z 1.700,A -135.000,B 0.000,C 180.000} C_DIS
LIN {X 1187.008,Y 1152.034,Z 1.700,A -135.000,B 0.000,C 180.000} C_DIS
LIN {X 1190.843,Y 1152.034,Z 1.700,A -135.000,B 0.000,C 180.000} C_DIS
LIN {X 1191.761,Y 1152.900,Z 1.700,A -135.000,B 0.000,C 180.000} C_DIS
LIN {X 1192.830,Y 1153.329,Z 1.700,A -135.000,B 0.000,C 180.000} C_DIS
LIN {X 1193.898,Y 1153.294,Z 1.700,A -135.000,B 0.000,C 180.000} C_DIS
LIN {X 1194.966,Y 1152.587,Z 1.700,A -135.000,B 0.000,C 180.000} C_DIS
LIN {X 1195.553,Y 1152.034,Z 1.700,A -135.000,B 0.000,C 180.000} C_DIS
LIN {X 1199.388,Y 1152.034,Z 1.700,A -135.000,B 0.000,C 180.000} C_DIS
LIN {X 1200.307,Y 1152.900,Z 1.700,A -135.000,B 0.000,C 180.000} C_DIS
LIN {X 1201.375,Y 1153.329,Z 1.700,A -135.000,B 0.000,C 180.000} C_DIS
LIN {X 1202.443,Y 1153.294,Z 1.700,A -135.000,B 0.000,C 180.000} C_DIS
LIN {X 1203.511,Y 1152.587,Z 1.700,A -135.000,B 0.000,C 180.000} C_DIS
LIN {X 1204.098,Y 1152.034,Z 1.700,A -135.000,B 0.000,C 180.000} C_DIS
LIN {X 1207.933,Y 1152.034,Z 1.700,A -135.000,B 0.000,C 180.000} C_DIS
LIN {X 1208.852,Y 1152.900,Z 1.700,A -135.000,B 0.000,C 180.000} C_DIS
LIN {X 1209.920,Y 1153.329,Z 1.700,A -135.000,B 0.000,C 180.000} C_DIS
LIN {X 1210.988,Y 1153.294,Z 1.700,A -135.000,B 0.000,C 180.000} C_DIS
LIN {X 1212.056,Y 1152.587,Z 1.700,A -135.000,B 0.000,C 180.000} C_DIS
LIN {X 1212.643,Y 1152.034,Z 1.700,A -135.000,B 0.000,C 180.000} C_DIS
LIN {X 1216.478,Y 1152.034,Z 1.700,A -135.000,B 0.000,C 180.000} C_DIS
LIN {X 1217.397,Y 1152.900,Z 1.700,A -135.000,B 0.000,C 180.000} C_DIS
LIN {X 1218.465,Y 1153.329,Z 1.700,A -135.000,B 0.000,C 180.000} C_DIS
LIN {X 1219.533,Y 1153.294,Z 1.700,A -135.000,B 0.000,C 180.000} C_DIS
LIN {X 1220.601,Y 1152.587,Z 1.700,A -135.000,B 0.000,C 180.000} C_DIS
LIN {X 1221.188,Y 1152.034,Z 1.700,A -135.000,B 0.000,C 180.000} C_DIS
LIN {X 1225.023,Y 1152.034,Z 1.700,A -135.000,B 0.000,C 180.000} C_DIS
LIN {X 1225.942,Y 1152.900,Z 1.700,A -135.000,B 0.000,C 180.000} C_DIS
LIN {X 1227.010,Y 1153.329,Z 1.700,A -135.000,B 0.000,C 180.000} C_DIS
LIN {X 1228.078,Y 1153.294,Z 1.700,A -135.000,B 0.000,C 180.000} C_DIS
LIN {X 1229.146,Y 1152.587,Z 1.700,A -135.000,B 0.000,C 180.000} C_DIS
LIN {X 1229.733,Y 1152.034,Z 1.700,A -135.000,B 0.000,C 180.000} C_DIS
LIN {X 1233.568,Y 1152.034,Z 1.700,A -135.000,B 0.000,C 180.000} C_DIS
LIN {X 1234.487,Y 1152.900,Z 1.700,A -135.000,B 0.000,C 180.000} C_DIS
LIN {X 1235.555,Y 1153.329,Z 1.700,A -135.000,B 0.000,C 180.000} C_DIS
LIN {X 1236.623,Y 1153.294,Z 1.700,A -135.000,B 0.000,C 180.000} C_DIS
LIN {X 1237.692,Y 1152.587,Z 1.700,A -135.000,B 0.000,C 180.000} C_DIS
LIN {X 1238.278,Y 1152.034,Z 1.700,A -135.000,B 0.000,C 180.000} C_DIS
LIN {X 1242.114,Y 1152.034,Z 1.700,A -135.000,B 0.000,C 180.000} C_DIS
LIN {X 1243.032,Y 1152.900,Z 1.700,A -135.000,B 0.000,C 180.000} C_DIS
LIN {X 1244.100,Y 1153.329,Z 1.700,A -135.000,B 0.000,C 180.000} C_DIS
LIN {X 1245.169,Y 1153.294,Z 1.700,A -135.000,B 0.000,C 180.000} C_DIS
LIN {X 1246.237,Y 1152.587,Z 1.700,A -135.000,B 0.000,C 180.000} C_DIS
LIN {X 1246.823,Y 1152.034,Z 1.700,A -135.000,B 0.000,C 180.000} C_DIS
$VEL.CP=0.03
LIN {X 1246.823,Y 1152.034,Z 1.700,A -135.000,B 0.000,C 180.000} C_DIS
()
$VEL.CP=0
LIN {X 1246.241,Y 1152.583,Z 1.700,A -135.000,B 0.000,C 180.000} C_DIS
LIN {X 1246.823,Y 1152.034,Z 1.700,A -135.000,B 0.000,C 180.000} C_DIS
;rapid-dry
LIN {X 1163.267,Y 1236.733,Z 1.850,A -135.000,B 0.000,C 180.000} C_DIS
()
$VEL.CP=0.03
LIN {X 1163.267,Y 1236.733,Z 1.850,A -135.000,B 0.000,C 180.000} C_DIS
;bead-perimeter_outer
LIN {X 1236.733,Y 1236.733,Z 1.850,A -135.000,B 0.000,C 180.000} C_DIS
LIN {X 1236.733,Y 1163.267,Z 1.850,A -135.000,B 0.000,C 180.000} C_DIS
LIN {X 1163.267,Y 1163.267,Z 1.850,A -135.000,B 0.000,C 180.000} C_DIS
LIN {X 1163.267,Y 1236.733,Z 1.850,A -135.000,B 0.000,C 180.000} C_DIS
LIN {X 1163.267,Y 1236.733,Z 1.850,A -135.000,B 0.000,C 180.000} C_DIS
()
$VEL.CP=0
LIN {X 1164.067,Y 1236.733,Z 1.850,A -135.000,B 0.000,C 180.000} C_DIS
LIN {X 1163.267,Y 1236.733,Z 1.850,A -135.000,B 0.000,C 180.000} C_DIS
;rapid-leaky
LIN {X 1162.907,Y 1237.093,Z 1.850,A -135.000,B 0.000,C 180.000} C_DIS
()
$VEL.CP=0.03
LIN {X 1162.907,Y 1237.093,Z 1.850,A -135.000,B 0.000,C 180.000} C_DIS
;bead-perimeter_inner
$VEL.CP=0.04
LIN {X 1237.093,Y 1237.093,Z 1.850,A -135.000,B 0.000,C 180.000} C_DIS
LIN {X 1237.093,Y 1162.907,Z 1.850,A -135.000,B 0.000,C 180.000} C_DIS
LIN {X 1162.907,Y 1162.907,Z 1.850,A -135.000,B 0.000,C 180.000} C_DIS
LIN {X 1162.907,Y 1237.093,Z 1.850,A -135.000,B 0.000,C 180.000} C_DIS
$VEL.CP=0.03
LIN {X 1162.907,Y 1237.093,Z 1.850,A -135.000,B 0.000,C 180.000} C_DIS
()
$VEL.CP=0
LIN {X 1163.707,Y 1237.093,Z 1.850,A -135.000,B 0.000,C 180.000} C_DIS
LIN {X 1162.907,Y 1237.093,Z 1.850,A -135.000,B 0.000,C 180.000} C_DIS
;rapid-leaky
LIN {X 1151.459,Y 1248.541,Z 1.850,A -135.000,B 0.000,C 180.000} C_DIS
()
$VEL.CP=0.03
LIN {X 1151.459,Y 1248.541,Z 1.850,A -135.000,B 0.000,C 180.000} C_DIS
;bead-perimeter_outer
LIN {X 1151.459,Y 1151.459,Z 1.850,A -135.000,B 0.000,C 180.000} C_DIS
LIN {X 1248.541,Y 1151.459,Z 1.850,A -135.000,B 0.000,C 180.000} C_DIS
LIN {X 1248.541,Y 1248.541,Z 1.850,A -135.000,B 0.000,C 180.000} C_DIS
LIN {X 1151.459,Y 1248.541,Z 1.850,A -135.000,B 0.000,C 180.000} C_DIS
LIN {X 1151.459,Y 1248.541,Z 1.850,A -135.000,B 0.000,C 180.000} C_DIS
()
$VEL.CP=0
LIN {X 1151.459,Y 1247.741,Z 1.850,A -135.000,B 0.000,C 180.000} C_DIS
LIN {X 1151.459,Y 1248.541,Z 1.850,A -135.000,B 0.000,C 180.000} C_DIS
;rapid-leaky
LIN {X 1151.819,Y 1248.181,Z 1.850,A -135.000,B 0.000,C 180.000} C_DIS
()
$VEL.CP=0.03
LIN {X 1151.819,Y 1248.181,Z 1.850,A -135.000,B 0.000,C 180.000} C_DIS
;bead-perimeter_inner
$VEL.CP=0.04
LIN {X 1151.819,Y 1151.819,Z 1.850,A -135.000,B 0.000,C 180.000} C_DIS
LIN {X 1248.181,Y 1151.819,Z 1.850,A -135.000,B 0.000,C 180.000} C_DIS
LIN {X 1248.181,Y 1248.181,Z 1.850,A -135.000,B 0.000,C 180.000} C_DIS
LIN {X 1151.819,Y 1248.181,Z 1.850,A -135.000,B 0.000,C 180.000} C_DIS
$VEL.CP=0.03
LIN {X 1151.819,Y 1248.181,Z 1.850,A -135.000,B 0.000,C 180.000} C_DIS
()
$VEL.CP=0
LIN {X 1151.819,Y 1247.381,Z 1.850,A -135.000,B 0.000,C 180.000} C_DIS
LIN {X 1151.819,Y 1248.181,Z 1.850,A -135.000,B 0.000,C 180.000} C_DIS
;rapid-leaky
LIN {X 1152.139,Y 1246.497,Z 1.850,A -135.000,B 0.000,C 180.000} C_DIS
()
$VEL.CP=0.03
LIN {X 1152.139,Y 1246.497,Z 1.850,A -135.000,B 0.000,C 180.000} C_DIS
;bead-sparse_infill
$VEL.CP=0.06
LIN {X 1152.240,Y 1246.425,Z 1.850,A -135.000,B 0.000,C 180.000} C_DIS
LIN {X 1153.308,Y 1245.502,Z 1.850,A -135.000,B 0.000,C 180.000} C_DIS
LIN {X 1154.377,Y 1245.162,Z 1.850,A -135.000,B 0.000,C 180.000} C_DIS
LIN {X 1155.445,Y 1245.286,Z 1.850,A -135.000,B 0.000,C 180.000} C_DIS
LIN {X 1156.513,Y 1246.049,Z 1.850,A -135.000,B 0.000,C 180.000} C_DIS
LIN {X 1157.581,Y 1246.972,Z 1.850,A -135.000,B 0.000,C 180.000} C_DIS
LIN {X 1158.649,Y 1247.311,Z 1.850,A -135.000,B 0.000,C 180.000} C_DIS
LIN {X 1159.717,Y 1247.188,Z 1.850,A -135.000,B 0.000,C 180.000} C_DIS
LIN {X 1160.785,Y 1246.425,Z 1.850,A -135.000,B 0.000,C 180.000} C_DIS
LIN {X 1161.854,Y 1245.502,Z 1.850,A -135.000,B 0.000,C 180.000} C_DIS
LIN {X 1162.922,Y 1245.162,Z 1.850,A -135.000,B 0.000,C 180.000} C_DIS
LIN {X 1163.990,Y 1245.286,Z 1.850,A -135.000,B 0.000,C 180.000} C_DIS
LIN {X 1165.058,Y 1246.049,Z 1.850,A -135.000,B 0.000,C 180.000} C_DIS
LIN {X 1166.126,Y 1246.972,Z 1.850,A -135.000,B 0.000,C 180.000} C_DIS
LIN {X 1167.194,Y 1247.311,Z 1.850,A -135.000,B 0.000,C 180.000} C_DIS
LIN {X 1168.262,Y 1247.188,Z 1.850,A -135.000,B 0.000,C 180.000} C_DIS
LIN {X 1169.331,Y 1246.425,Z 1.850,A -135.000,B 0.000,C 180.000} C_DIS
LIN {X 1170.399,Y 1245.502,Z 1.850,A -135.000,B 0.000,C 180.000} C_DIS
LIN {X 1171.467,Y 1245.162,Z 1.850,A -135.000,B 0.000,C 180.000} C_DIS
LIN {X 1172.535,Y 1245.286,Z 1.850,A -135.000,B 0.000,C 180.000} C_DIS
LIN {X 1173.603,Y 1246.049,Z 1.850,A -135.000,B 0.000,C 180.000} C_DIS
LIN {X 1174.671,Y 1246.972,Z 1.850,A -135.000,B 0.000,C 180.000} C_DIS
LIN {X 1175.739,Y 1247.311,Z 1.850,A -135.000,B 0.000,C 180.000} C_DIS
LIN {X 1176.807,Y 1247.188,Z 1.850,A -135.000,B 0.000,C 180.000} C_DIS
LIN {X 1177.876,Y 1246.425,Z 1.850,A -135.000,B 0.000,C 180.000} C_DIS
LIN {X 1178.944,Y 1245.502,Z 1.850,A -135.000,B 0.000,C 180.000} C_DIS
LIN {X 1180.012,Y 1245.162,Z 1.850,A -135.000,B 0.000,C 180.000} C_DIS
LIN {X 1181.080,Y 1245.286,Z 1.850,A -135.000,B 0.000,C 180.000} C_DIS
LIN {X 1182.148,Y 1246.049,Z 1.850,A -135.000,B 0.000,C 180.000} C_DIS
LIN {X 1183.216,Y 1246.972,Z 1.850,A -135.000,B 0.000,C 180.000} C_DIS
LIN {X 1184.285,Y 1247.311,Z 1.850,A -135.000,B 0.000,C 180.000} C_DIS
LIN {X 1185.353,Y 1247.188,Z 1.850,A -135.000,B 0.000,C 180.000} C_DIS
LIN {X 1186.421,Y 1246.425,Z 1.850,A -135.000,B 0.000,C 180.000} C_DIS
LIN {X 1187.489,Y 1245.502,Z 1.850,A -135.000,B 0.000,C 180.000} C_DIS
LIN {X 1188.557,Y 1245.162,Z 1.850,A -135.000,B 0.000,C 180.000} C_DIS
LIN {X 1189.625,Y 1245.286,Z 1.850,A -135.000,B 0.000,C 180.000} C_DIS
LIN {X 1190.693,Y 1246.049,Z 1.850,A -135.000,B 0.000,C 180.000} C_DIS
LIN {X 1191.761,Y 1246.972,Z 1.850,A -135.000,B 0.000,C 180.000} C_DIS
LIN {X 1192.830,Y 1247.311,Z 1.850,A -135.000,B 0.000,C 180.000} C_DIS
LIN {X 1193.898,Y 1247.188,Z 1.850,A -135.000,B 0.000,C 180.000} C_DIS
LIN {X 1194.966,Y 1246.425,Z 1.850,A -135.000,B 0.000,C 180.000} C_DIS
LIN {X 1196.034,Y 1245.502,Z 1.850,A -135.000,B 0.000,C 180.000} C_DIS
LIN {X 1197.102,Y 1245.162,Z 1.850,A -135.000,B 0.000,C 180.000} C_DIS
LIN {X 1198.170,Y 1245.286,Z 1.850,A -135.000,B 0.000,C 180.000} C_DIS
LIN {X 1199.239,Y 1246.049,Z 1.850,A -135.000,B 0.000,C 180.000} C_DIS
LIN {X 1200.307,Y 1246.972,Z 1.850,A -135.000,B 0.000,C 180.000} C_DIS
LIN {X 1201.375,Y 1247.311,Z 1.850,A -135.000,B 0.000,C 180.000} C_DIS
LIN {X 1202.443,Y 1247.188,Z 1.850,A -135.000,B 0.000,C 180.000} C_DIS
LIN {X 1203.511,Y 1246.425,Z 1.850,A -135.000,B 0.000,C 180.000} C_DIS
LIN {X 1204.579,Y 1245.502,Z 1.850,A -135.000,B 0.000,C 180.000} C_DIS
LIN {X 1205.647,Y 1245.162,Z 1.850,A -135.000,B 0.000,C 180.000} C_DIS
LIN {X 1206.715,Y 1245.286,Z 1.850,A -135.000,B 0.000,C 180.000} C_DIS
LIN {X 1207.784,Y 1246.049,Z 1.850,A -135.000,B 0.000,C 180.000} C_DIS
LIN {X 1208.852,Y 1246.972,Z 1.850,A -135.000,B 0.000,C 180.000} C_DIS
LIN {X 1209.920,Y 1247.311,Z 1.850,A -135.000,B 0.000,C 180.000} C_DIS
LIN {X 1210.988,Y 1247.188,Z 1.850,A -135.000,B 0.000,C 180.000} C_DIS
LIN {X 1212.056,Y 1246.425,Z 1.850,A -135.000,B 0.000,C 180.000} C_DIS
LIN {X 1213.124,Y 1245.502,Z 1.850,A -135.000,B 0.000,C 180.000} C_DIS
LIN {X 1214.193,Y 1245.162,Z 1.850,A -135.000,B 0.000,C 180.000} C_DIS
LIN {X 1215.261,Y 1245.286,Z 1.850,A -135.000,B 0.000,C 180.000} C_DIS
LIN {X 1216.329,Y 1246.049,Z 1.850,A -135.000,B 0.000,C 180.000} C_DIS
LIN {X 1217.397,Y 1246.972,Z 1.850,A -135.000,B 0.000,C 180.000} C_DIS
LIN {X 1218.465,Y 1247.311,Z 1.850,A -135.000,B 0.000,C 180.000} C_DIS
LIN {X 1219.533,Y 1247.188,Z 1.850,A -135.000,B 0.000,C 180.000} C_DIS
LIN {X 1220.601,Y 1246.425,Z 1.850,A -135.000,B 0.000,C 180.000} C_DIS
LIN {X 1221.669,Y 1245.502,Z 1.850,A -135.000,B 0.000,C 180.000} C_DIS
LIN {X 1222.738,Y 1245.162,Z 1.850,A -135.000,B 0.000,C 180.000} C_DIS
LIN {X 1223.806,Y 1245.286,Z 1.850,A -135.000,B 0.000,C 180.000} C_DIS
LIN {X 1224.874,Y 1246.049,Z 1.850,A -135.000,B 0.000,C 180.000} C_DIS
LIN {X 1225.942,Y 1246.972,Z 1.850,A -135.000,B 0.000,C 180.000} C_DIS
LIN {X 1227.010,Y 1247.311,Z 1.850,A -135.000,B 0.000,C 180.000} C_DIS
LIN {X 1228.078,Y 1247.188,Z 1.850,A -135.000,B 0.000,C 180.000} C_DIS
LIN {X 1229.146,Y 1246.425,Z 1.850,A -135.000,B 0.000,C 180.000} C_DIS
LIN {X 1230.215,Y 1245.502,Z 1.850,A -135.000,B 0.000,C 180.000} C_DIS
LIN {X 1231.283,Y 1245.162,Z 1.850,A -135.000,B 0.000,C 180.000} C_DIS
LIN {X 1232.351,Y 1245.286,Z 1.850,A -135.000,B 0.000,C 180.000} C_DIS
LIN {X 1233.419,Y 1246.049,Z 1.850,A -135.000,B 0.000,C 180.000} C_DIS
LIN {X 1234.487,Y 1246.972,Z 1.850,A -135.000,B 0.000,C 180.000} C_DIS
LIN {X 1235.555,Y 1247.311,Z 1.850,A -135.000,B 0.000,C 180.000} C_DIS
LIN {X 1236.623,Y 1247.188,Z 1.850,A -135.000,B 0.000,C 180.000} C_DIS
LIN {X 1237.692,Y 1246.425,Z 1.850,A -135.000,B 0.000,C 180.000} C_DIS
LIN {X 1238.760,Y 1245.502,Z 1.850,A -135.000,B 0.000,C 180.000} C_DIS
LIN {X 1239.828,Y 1245.162,Z 1.850,A -135.000,B 0.000,C 180.000} C_DIS
LIN {X 1240.896,Y 1245.286,Z 1.850,A -135.000,B 0.000,C 180.000} C_DIS
LIN {X 1241.964,Y 1246.049,Z 1.850,A -135.000,B 0.000,C 180.000} C_DIS
LIN {X 1243.032,Y 1246.972,Z 1.850,A -135.000,B 0.000,C 180.000} C_DIS
LIN {X 1244.100,Y 1247.311,Z 1.850,A -135.000,B 0.000,C 180.000} C_DIS
LIN {X 1245.169,Y 1247.188,Z 1.850,A -135.000,B 0.000,C 180.000} C_DIS
LIN {X 1246.237,Y 1246.425,Z 1.850,A -135.000,B 0.000,C 180.000} C_DIS
LIN {X 1247.305,Y 1245.502,Z 1.850,A -135.000,B 0.000,C 180.000} C_DIS
LIN {X 1247.861,Y 1245.325,Z 1.850,A -135.000,B 0.000,C 180.000} C_DIS
$VEL.CP=0.03
LIN {X 1247.861,Y 1245.325,Z 1.850,A -135.000,B 0.000,C 180.000} C_DIS
()
$VEL.CP=0
LIN {X 1247.305,Y 1245.502,Z 1.850,A -135.000,B 0.000,C 180.000} C_DIS
LIN {X 1247.141,Y 1245.643,Z 1.850,A -135.000,B 0.000,C 180.000} C_DIS
LIN {X 1247.305,Y 1245.502,Z 1.850,A -135.000,B 0.000,C 180.000} C_DIS
LIN {X 1247.861,Y 1245.325,Z 1.850,A -135.000,B 0.000,C 180.000} C_DIS
;rapid-leaky
LIN {X 1247.861,Y 1232.404,Z 1.850,A -135.000,B 0.000,C 180.000} C_DIS
()
$VEL.CP=0.03
LIN {X 1247.861,Y 1232.404,Z 1.850,A -135.000,B 0.000,C 180.000} C_DIS
;bead-sparse_infill
$VEL.CP=0.06
LIN {X 1247.305,Y 1232.468,Z 1.850,A -135.000,B 0.000,C 180.000} C_DIS
LIN {X 1246.237,Y 1233.231,Z 1.850,A -135.000,B 0.000,C 180.000} C_DIS
LIN {X 1245.169,Y 1234.154,Z 1.850,A -135.000,B 0.000,C 180.000} C_DIS
LIN {X 1244.100,Y 1234.494,Z 1.850,A -135.000,B 0.000,C 180.000} C_DIS
LIN {X 1243.032,Y 1234.370,Z 1.850,A -135.000,B 0.000,C 180.000} C_DIS
LIN {X 1241.964,Y 1233.607,Z 1.850,A -135.000,B 0.000,C 180.000} C_DIS
LIN {X 1240.896,Y 1232.684,Z 1.850,A -135.000,B 0.000,C 180.000} C_DIS
LIN {X 1239.828,Y 1232.344,Z 1.850,A -135.000,B 0.000,C 180.000} C_DIS
LIN {X 1238.760,Y 1232.468,Z 1.850,A -135.000,B 0.000,C 180.000} C_DIS
LIN {X 1237.692,Y 1233.231,Z 1.850,A -135.000,B 0.000,C 180.000} C_DIS
LIN {X 1237.413,Y 1233.472,Z 1.850,A -135.000,B 0.000,C 180.000} C_DIS
LIN {X 1237.413,Y 1229.533,Z 1.850,A -135.000,B 0.000,C 180.000} C_DIS
LIN {X 1237.692,Y 1229.334,Z 1.850,A -135.000,B 0.000,C 180.000} C_DIS
LIN {X 1238.760,Y 1228.411,Z 1.850,A -135.000,B 0.000,C 180.000} C_DIS
LIN {X 1239.828,Y 1228.072,Z 1.850,A -135.000,B 0.000,C 180.000} C_DIS
LIN {X 1240.896,Y 1228.195,Z 1.850,A -135.000,B 0.000,C 180.000} C_DIS
LIN {X 1241.964,Y 1228.958,Z 1.850,A -135.000,B 0.000,C 180.000} C_DIS
LIN {X 1243.032,Y 1229.882,Z 1.850,A -135.000,B 0.000,C 180.000} C_DIS
LIN {X 1244.100,Y 1230.221,Z 1.850,A -135.000,B 0.000,C 180.000} C_DIS
LIN {X 1245.169,Y 1230.098,Z 1.850,A -135.000,B 0.000,C 180.000} C_DIS
LIN {X 1246.237,Y 1229.334,Z 1.850,A -135.000,B 0.000,C 180.000} C_DIS
LIN {X 1247.305,Y 1228.411,Z 1.850,A -135.000,B 0.000,C 180.000} C_DIS
LIN {X 1247.861,Y 1228.235,Z 1.850,A -135.000,B 0.000,C 180.000} C_DIS
LIN {X 1247.861,Y 1223.859,Z 1.850,A -135.000,B 0.000,C 180.000} C_DIS
LIN {X 1247.305,Y 1223.923,Z 1.850,A -135.000,B 0.000,C 180.000} C_DIS
LIN {X 1246.237,Y 1224.686,Z 1.850,A -135.000,B 0.000,C 180.000} C_DIS
LIN {X 1245.169,Y 1225.609,Z 1.850,A -135.000,B 0.000,C 180.000} C_DIS
LIN {X 1244.100,Y 1225.948,Z 1.850,A -135.000,B 0.000,C 180.000} C_DIS
LIN {X 1243.032,Y 1225.825,Z 1.850,A -135.000,B 0.000,C 180.000} C_DIS
LIN {X 1241.964,Y 1225.062,Z 1.850,A -135.000,B 0.000,C 180.000} C_DIS
LIN {X 1240.896,Y 1224.139,Z 1.850,A -135.000,B 0.000,C 180.000} C_DIS
LIN {X 1239.828,Y 1223.799,Z 1.850,A -135.000,B 0.000,C 180.000} C_DIS
LIN {X 1238.760,Y 1223.923,Z 1.850,A -135.000,B 0.000,C 180.000} C_DIS
LIN {X 1237.692,Y 1224.686,Z 1.850,A -135.000,B 0.000,C 180.000} C_DIS
LIN {X 1237.413,Y 1224.927,Z 1.850,A -135.000,B 0.000,C 180.000} C_DIS
LIN {X 1237.413,Y 1220.988,Z 1.850,A -135.000,B 0.000,C 180.000} C_DIS
LIN {X 1237.692,Y 1220.789,Z 1.850,A -135.000,B 0.000,C 180.000} C_DIS
LIN {X 1238.760,Y 1219.866,Z 1.850,A -135.000,B 0.000,C 180.000} C_DIS
LIN {X 1239.828,Y 1219.527,Z 1.850,A -135.000,B 0.000,C 180.000} C_DIS
LIN {X 1240.896,Y 1219.650,Z 1.850,A -135.000,B 0.000,C 180.000} C_DIS
LIN {X 1241.964,Y 1220.413,Z 1.850,A -135.000,B 0.000,C 180.000} C_DIS
LIN {X 1243.032,Y 1221.336,Z 1.850,A -135.000,B 0.000,C 180.000} C_DIS
LIN {X 1244.100,Y 1221.676,Z 1.850,A -135.000,B 0.000,C 180.000} C_DIS
LIN {X 1245.169,Y 1221.552,Z 1.850,A -135.000,B 0.000,C 180.000} C_DIS
LIN {X 1246.237,Y 1220.789,Z 1.850,A -135.000,B 0.000,C 180.000} C_DIS
LIN {X 1247.305,Y 1219.866,Z 1.850,A -135.000,B 0.000,C 180.000} C_DIS
LIN {X 1247.861,Y 1219.689,Z 1.850,A -135.000,B 0.000,C 180.000} C_DIS
LIN {X 1247.861,Y 1215.313,Z 1.850,A -135.000,B 0.000,C 180.000} C_DIS
LIN {X 1247.305,Y 1215.378,Z 1.850,A -135.000,B 0.000,C 180.000} C_DIS
LIN {X 1246.237,Y 1216.141,Z 1.850,A -135.000,B 0.000,C 180.000} C_DIS
LIN {X 1245.169,Y 1217.064,Z 1.850,A -135.000,B 0.000,C 180.000} C_DIS
LIN {X 1244.100,Y 1217.403,Z 1.850,A -135.000,B 0.000,C 180.000} C_DIS
LIN {X 1243.032,Y 1217.280,Z 1.850,A -135.000,B 0.000,C 180.000} C_DIS
LIN {X 1241.964,Y 1216.517,Z 1.850,A -135.000,B 0.000,C 180.000} C_DIS
LIN {X 1240.896,Y 1215.594,Z 1.850,A -135.000,B 0.000,C 180.000} C_DIS
LIN {X 1239.828,Y 1215.254,Z 1.850,A -135.000,B 0.000,C 180.000} C_DIS
LIN {X 1238.760,Y 1215.378,Z 1.850,A -135.000,B 0.000,C 180.000} C_DIS
LIN {X 1237.692,Y 1216.141,Z 1.850,A -135.000,B 0.000,C 180.000} C_DIS
LIN {X 1237.413,Y 1216.381,Z 1.850,A -135.000,B 0.000,C 180.000} C_DIS
LIN {X 1237.413,Y 1212.443,Z 1.850,A -135.000,B 0.000,C 180.000} C_DIS
LIN {X 1237.692,Y 1212.244,Z 1.850,A -135.000,B 0.000,C 180.000} C_DIS
LIN {X 1238.760,Y 1211.321,Z 1.850,A -135.000,B 0.000,C 180.000} C_DIS
LIN {X 1239.828,Y 1210.982,Z 1.850,A -135.000,B 0.000,C 180.000} C_DIS
LIN {X 1240.896,Y 1211.105,Z 1.850,A -135.000,B 0.000,C 180.000} C_DIS
LIN {X 1241.964,Y 1211.868,Z 1.850,A -135.000,B 0.000,C 180.000} C_DIS
LIN {X 1243.032,Y 1212.791,Z 1.850,A -135.000,B 0.000,C 180.000} C_DIS
LIN {X 1244.100,Y 1213.131,Z 1.850,A -135.000,B 0.000,C 180.000} C_DIS
LIN {X 1245.169,Y 1213.007,Z 1.850,A -135.000,B 0.000,C 180.000} C_DIS
LIN {X 1246.237,Y 1212.244,Z 1.850,A -135.000,B 0.000,C 180.000} C_DIS
LIN {X 1247.305,Y 1211.321,Z 1.850,A -135.000,B 0.000,C 180.000} C_DIS
LIN {X 1247.861,Y 1211.144,Z 1.850,A -135.000,B 0.000,C 180.000} C_DIS
LIN {X 1247.861,Y 1206.768,Z 1.850,A -135.000,B 0.000,C 180.000} C_DIS
LIN {X 1247.305,Y 1206.833,Z 1.850,A -135.000,B 0.000,C 180.000} C_DIS
LIN {X 1246.237,Y 1207.596,Z 1.850,A -135.000,B 0.000,C 180.000} C_DIS
LIN {X 1245.169,Y 1208.519,Z 1.850,A -135.000,B 0.000,C 180.000} C_DIS
LIN {X 1244.100,Y 1208.858,Z 1.850,A -135.000,B 0.000,C 180.000} C_DIS
LIN {X 1243.032,Y 1208.735,Z 1.850,A -135.000,B 0.000,C 180.000} C_DIS
LIN {X 1241.964,Y 1207.972,Z 1.850,A -135.000,B 0.000,C 180.000} C_DIS
LIN {X 1240.896,Y 1207.049,Z 1.850,A -135.000,B 0.000,C 180.000} C_DIS
LIN {X 1239.828,Y 1206.709,Z 1.850,A -135.000,B 0.000,C 180.000} C_DIS
LIN {X 1238.760,Y 1206.833,Z 1.850,A -135.000,B 0.000,C 180.000} C_DIS
LIN {X 1237.692,Y 1207.596,Z 1.850,A -135.000,B 0.000,C 180.000} C_DIS
LIN {X 1237.413,Y 1207.836,Z 1.850,A -135.000,B 0.000,C 180.000} C_DIS
LIN {X 1237.413,Y 1203.898,Z 1.850,A -135.000,B 0.000,C 180.000} C_DIS
LIN {X 1237.692,Y 1203.699,Z 1.850,A -135.000,B 0.000,C 180.000} C_DIS
LIN {X 1238.760,Y 1202.776,Z 1.850,A -135.000,B 0.000,C 180.000} C_DIS
LIN {X 1239.828,Y 1202.437,Z 1.850,A -135.000,B 0.000,C 180.000} C_DIS
LIN {X 1240.896,Y 1202.560,Z 1.850,A -135.000,B 0.000,C 180.000} C_DIS
LIN {X 1241.964,Y 1203.323,Z 1.850,A -135.000,B 0.000,C 180.000} C_DIS
LIN {X 1243.032,Y 1204.246,Z 1.850,A -135.000,B 0.000,C 180.000} C_DIS
LIN {X 1244.100,Y 1204.586,Z 1.850,A -135.000,B 0.000,C 180.000} C_DIS
LIN {X 1245.169,Y 1204.462,Z 1.850,A -135.000,B 0.000,C 180.000} C_DIS
LIN {X 1246.237,Y 1203.699,Z 1.850,A -135.000,B 0.000,C 180.000} C_DIS
LIN {X 1247.305,Y 1202.776,Z 1.850,A -135.000,B 0.000,C 180.000} C_DIS
LIN {X 1247.861,Y 1202.599,Z 1.850,A -135.000,B 0.000,C 180.000} C_DIS
LIN {X 1247.861,Y 1198.223,Z 1.850,A -135.000,B 0.000,C 180.000} C_DIS
LIN {X 1247.305,Y 1198.287,Z 1.850,A -135.000,B 0.000,C 180.000} C_DIS
LIN {X 1246.237,Y 1199.050,Z 1.850,A -135.000,B 0.000,C 180.000} C_DIS
LIN {X 1245.169,Y 1199.974,Z 1.850,A -135.000,B 0.000,C 180.000} C_DIS
LIN {X 1244.100,Y 1200.313,Z 1.850,A -135.000,B 0.000,C 180.000} C_DIS
LIN {X 1243.032,Y 1200.190,Z 1.850,A -135.000,B 0.000,C 180.000} C_DIS
LIN {X 1241.964,Y 1199.427,Z 1.850,A -135.000,B 0.000,C 180.000} C_DIS
LIN {X 1240.896,Y 1198.503,Z 1.850,A -135.000,B 0.000,C 180.000} C_DIS
LIN {X 1239.828,Y 1198.164,Z 1.850,A -135.000,B 0.000,C 180.000} C_DIS
LIN {X 1238.760,Y 1198.287,Z 1.850,A -135.000,B 0.000,C 180.000} C_DIS
LIN {X 1237.692,Y 1199.050,Z 1.850,A -135.000,B 0.000,C 180.000} C_DIS
LIN {X 1237.413,Y 1199.291,Z 1.850,A -135.000,B 0.000,C 180.000} C_DIS
LIN {X 1237.413,Y 1195.353,Z 1.850,A -135.000,B 0.000,C 180.000} C_DIS
LIN {X 1237.692,Y 1195.154,Z 1.850,A -135.000,B 0.000,C 180.000} C_DIS
LIN {X 1238.760,Y 1194.231,Z 1.850,A -135.000,B 0.000,C 180.000} C_DIS
LIN {X 1239.828,Y 1193.891,Z 1.850,A -135.000,B 0.000,C 180.000} C_DIS
LIN {X 1240.896,Y 1194.015,Z 1.850,A -135.000,B 0.000,C 180.000} C_DIS
LIN {X 1241.964,Y 1194.778,Z 1.850,A -135.000,B 0.000,C 180.000} C_DIS
LIN {X 1243.032,Y 1195.701,Z 1.850,A -135.000,B 0.000,C 180.000} C_DIS
LIN {X 1244.100,Y 1196.041,Z 1.850,A -135.000,B 0.000,C 180.000} C_DIS
LIN {X 1245.169,Y 1195.917,Z 1.850,A -135.000,B 0.000,C 180.000} C_DIS
LIN {X 1246.237,Y 1195.154,Z 1.850,A -135.000,B 0.000,C 180.000} C_DIS
LIN {X 1247.305,Y 1194.231,Z 1.850,A -135.000,B 0.000,C 180.000} C_DIS
LIN {X 1247.861,Y 1194.054,Z 1.850,A -135.000,B 0.000,C 180.000} C_DIS
LIN {X 1247.861,Y 1189.678,Z 1.850,A -135.000,B 0.000,C 180.000} C_DIS
LIN {X 1247.305,Y 1189.742,Z 1.850,A -135.000,B 0.000,C 180.000} C_DIS
LIN {X 1246.237,Y 1190.505,Z 1.850,A -135.000,B 0.000,C 180.000} C_DIS
LIN {X 1245.169,Y 1191.428,Z 1.850,A -135.000,B 0.000,C 180.000} C_DIS
LIN {X 1244.100,Y 1191.768,Z 1.850,A -135.000,B 0.000,C 180.000} C_DIS
LIN {X 1243.032,Y 1191.645,Z 1.850,A -135.000,B 0.000,C 180.000} C_DIS
LIN {X 1241.964,Y 1190.881,Z 1.850,A -135.000,B 0.000,C 180.000} C_DIS
LIN {X 1240.896,Y 1189.958,Z 1.850,A -135.000,B 0.000,C 180.000} C_DIS
LIN {X 1239.828,Y 1189.619,Z 1.850,A -135.000,B 0.000,C 180.000} C_DIS
LIN {X 1238.760,Y 1189.742,Z 1.850,A -135.000,B 0.000,C 180.000} C_DIS
LIN {X 1237.692,Y 1190.505,Z 1.850,A -135.000,B 0.000,C 180.000} C_DIS
LIN {X 1237.413,Y 1190.746,Z 1.850,A -135.000,B 0.000,C 180.000} C_DIS
LIN {X 1237.413,Y 1186.808,Z 1.850,A -135.000,B 0.000,C 180.000} C_DIS
LIN {X 1237.692,Y 1186.609,Z 1.850,A -135.000,B 0.000,C 180.000} C_DIS
LIN {X 1238.760,Y 1185.686,Z 1.850,A -135.000,B 0.000,C 180.000} C_DIS
LIN {X 1239.828,Y 1185.346,Z 1.850,A -135.000,B 0.000,C 180.000} C_DIS
LIN {X 1240.896,Y 1185.470,Z 1.850,A -135.000,B 0.000,C 180.000} C_DIS
LIN {X 1241.964,Y 1186.233,Z 1.850,A -135.000,B 0.000,C 180.000} C_DIS
LIN {X 1243.032,Y 1187.156,Z 1.850,A -135.000,B 0.000,C 180.000} C_DIS
LIN {X 1244.100,Y 1187.495,Z 1.850,A -135.000,B 0.000,C 180.000} C_DIS
LIN {X 1245.169,Y 1187.372,Z 1.850,A -135.000,B 0.000,C 180.000} C_DIS
LIN {X 1246.237,Y 1186.609,Z 1.850,A -135.000,B 0.000,C 180.000} C_DIS
LIN {X 1247.305,Y 1185.686,Z 1.850,A -135.000,B 0.000,C 180.000} C_DIS
LIN {X 1247.861,Y 1185.509,Z 1.850,A -135.000,B 0.000,C 180.000} C_DIS
LIN {X 1247.861,Y 1181.133,Z 1.850,A -135.000,B 0.000,C 180.000} C_DIS
LIN {X 1247.305,Y 1181.197,Z 1.850,A -135.000,B 0.000,C 180.000} C_DIS
LIN {X 1246.237,Y 1181.960,Z 1.850,A -135.000,B 0.000,C 180.000} C_DIS
LIN {X 1245.169,Y 1182.883,Z 1.850,A -135.000,B 0.000,C 180.000} C_DIS
LIN {X 1244.100,Y 1183.223,Z 1.850,A -135.000,B 0.000,C 180.000} C_DIS
LIN {X 1243.032,Y 1183.099,Z 1.850,A -135.000,B 0.000,C 180.000} C_DIS
LIN {X 1241.964,Y 1182.336,Z 1.850,A -135.000,B 0.000,C 180.000} C_DIS
LIN {X 1240.896,Y 1181.413,Z 1.850,A -135.000,B 0.000,C 180.000} C_DIS
LIN {X 1239.828,Y 1181.074,Z 1.850,A -135.000,B 0.000,C 180.000} C_DIS
LIN {X 1238.760,Y 1181.197,Z 1.850,A -135.000,B 0.000,C 180.000} C_DIS
LIN {X 1237.692,Y 1181.960,Z 1.850,A -135.000,B 0.000,C 180.000} C_DIS
LIN {X 1237.413,Y 1182.201,Z 1.850,A -135.000,B 0.000,C 180.000} C_DIS
LIN {X 1237.413,Y 1178.263,Z 1.850,A -135.000,B 0.000,C 180.000} C_DIS
LIN {X 1237.692,Y 1178.064,Z 1.850,A -135.000,B 0.000,C 180.000} C_DIS
LIN {X 1238.760,Y 1177.141,Z 1.850,A -135.000,B 0.000,C 180.000} C_DIS
LIN {X 1239.828,Y 1176.801,Z 1.850,A -135.000,B 0.000,C 180.000} C_DIS
LIN {X 1240.896,Y 1176.925,Z 1.850,A -135.000,B 0.000,C 180.000} C_DIS
LIN {X 1241.964,Y 1177.688,Z 1.850,A -135.000,B 0.000,C 180.000} C_DIS
LIN {X 1243.032,Y 1178.611,Z 1.850,A -135.000,B 0.000,C 180.000} C_DIS
LIN {X 1244.100,Y 1178.950,Z 1.850,A -135.000,B 0.000,C 180.000} C_DIS
LIN {X 1245.169,Y 1178.827,Z 1.850,A -135.000,B 0.000,C 180.000} C_DIS
LIN {X 1246.237,Y 1178.064,Z 1.850,A -135.000,B 0.000,C 180.000} C_DIS
LIN {X 1247.305,Y 1177.141,Z 1.850,A -135.000,B 0.000,C 180.000} C_DIS
LIN {X 1247.861,Y 1176.964,Z 1.850,A -135.000,B 0.000,C 180.000} C_DIS
LIN {X 1247.861,Y 1172.588,Z 1.850,A -135.000,B 0.000,C 180.000} C_DIS
LIN {X 1247.305,Y 1172.652,Z 1.850,A -135.000,B 0.000,C 180.000} C_DIS
LIN {X 1246.237,Y 1173.415,Z 1.850,A -135.000,B 0.000,C 180.000} C_DIS
LIN {X 1245.169,Y 1174.338,Z 1.850,A -135.000,B 0.000,C 180.000} C_DIS
LIN {X 1244.100,Y 1174.678,Z 1.850,A -135.000,B 0.000,C 180.000} C_DIS
LIN {X 1243.032,Y 1174.554,Z 1.850,A -135.000,B 0.000,C 180.000} C_DIS
LIN {X 1241.964,Y 1173.791,Z 1.850,A -135.000,B 0.000,C 180.000} C_DIS
LIN {X 1240.896,Y 1172.868,Z 1.850,A -135.000,B 0.000,C 180.000} C_DIS
LIN {X 1239.828,Y 1172.529,Z 1.850,A -135.000,B 0.000,C 180.000} C_DIS
LIN {X 1238.760,Y 1172.652,Z 1.850,A -135.000,B 0.000,C 180.000} C_DIS
LIN {X 1237.692,Y 1173.415,Z 1.850,A -135.000,B 0.000,C 180.000} C_DIS
LIN {X 1237.413,Y 1173.656,Z 1.850,A -135.000,B 0.000,C 180.000} C_DIS
LIN {X 1237.413,Y 1169.718,Z 1.850,A -135.000,B 0.000,C 180.000} C_DIS
LIN {X 1237.692,Y 1169.519,Z 1.850,A -135.000,B 0.000,C 180.000} C_DIS
LIN {X 1238.760,Y 1168.595,Z 1.850,A -135.000,B 0.000,C 180.000} C_DIS
LIN {X 1239.828,Y 1168.256,Z 1.850,A -135.000,B 0.000,C 180.000} C_DIS
LIN {X 1240.896,Y 1168.379,Z 1.850,A -135.000,B 0.000,C 180.000} C_DIS
LIN {X 1241.964,Y 1169.142,Z 1.850,A -135.000,B 0.000,C 180.000} C_DIS
LIN {X 1243.032,Y 1170.066,Z 1.850,A -135.000,B 0.000,C 180.000} C_DIS
LIN {X 1244.100,Y 1170.405,Z 1.850,A -135.000,B 0.000,C 180.000} C_DIS
LIN {X 1245.169,Y 1170.282,Z 1.850,A -135.000,B 0.000,C 180.000} C_DIS
LIN {X 1246.237,Y 1169.519,Z 1.850,A -135.000,B 0.000,C 180.000} C_DIS
LIN {X 1247.305,Y 1168.595,Z 1.850,A -135.000,B 0.000,C 180.000} C_DIS
LIN {X 1247.861,Y 1168.419,Z 1.850,A -135.000,B 0.000,C 180.000} C_DIS
LIN {X 1247.861,Y 1164.043,Z 1.850,A -135.000,B 0.000,C 180.000} C_DIS
LIN {X 1247.305,Y 1164.107,Z 1.850,A -135.000,B 0.000,C 180.000} C_DIS
LIN {X 1246.237,Y 1164.870,Z 1.850,A -135.000,B 0.000,C 180.000} C_DIS
LIN {X 1245.169,Y 1165.793,Z 1.850,A -135.000,B 0.000,C 180.000} C_DIS
LIN {X 1244.100,Y 1166.133,Z 1.850,A -135.000,B 0.000,C 180.000} C_DIS
LIN {X 1243.032,Y 1166.009,Z 1.850,A -135.000,B 0.000,C 180.000} C_DIS
LIN {X 1241.964,Y 1165.246,Z 1.850,A -135.000,B 0.000,C 180.000} C_DIS
LIN {X 1240.896,Y 1164.323,Z 1.850,A -135.000,B 0.000,C 180.000} C_DIS
LIN {X 1239.828,Y 1163.983,Z 1.850,A -135.000,B 0.000,C 180.000} C_DIS
LIN {X 1238.760,Y 1164.107,Z 1.850,A -135.000,B 0.000,C 180.000} C_DIS
LIN {X 1237.692,Y 1164.870,Z 1.850,A -135.000,B 0.000,C 180.000} C_DIS
LIN {X 1237.413,Y 1165.111,Z 1.850,A -135.000,B 0.000,C 180.000} C_DIS
$VEL.CP=0.03
LIN {X 1237.413,Y 1165.111,Z 1.850,A -135.000,B 0.000,C 180.000} C_DIS
()
$VEL.CP=0
LIN {X 1237.692,Y 1164.870,Z 1.850,A -135.000,B 0.000,C 180.000} C_DIS
LIN {X 1238.043,Y 1164.619,Z 1.850,A -135.000,B 0.000,C 180.000} C_DIS
LIN {X 1237.692,Y 1164.870,Z 1.850,A -135.000,B 0.000,C 180.000} C_DIS
LIN {X 1237.413,Y 1165.111,Z 1.850,A -135.000,B 0.000,C 180.000} C_DIS
;rapid-leaky
LIN {X 1246.572,Y 1152.139,Z 1.850,A -135.000,B 0.000,C 180.000} C_DIS
()
$VEL.CP=0.03
LIN {X 1246.572,Y 1152.139,Z 1.850,A -135.000,B 0.000,C 180.000} C_DIS
;bead-sparse_infill
$VEL.CP=0.06
LIN {X 1246.237,Y 1152.428,Z 1.850,A -135.000,B 0.000,C 180.000} C_DIS
LIN {X 1245.169,Y 1153.191,Z 1.850,A -135.000,B 0.000,C 180.000} C_DIS
LIN {X 1244.100,Y 1153.315,Z 1.850,A -135.000,B 0.000,C 180.000} C_DIS
LIN {X 1243.032,Y 1152.975,Z 1.850,A -135.000,B 0.000,C 180.000} C_DIS
LIN {X 1242.065,Y 1152.139,Z 1.850,A -135.000,B 0.000,C 180.000} C_DIS
LIN {X 1238.026,Y 1152.139,Z 1.850,A -135.000,B 0.000,C 180.000} C_DIS
LIN {X 1237.692,Y 1152.428,Z 1.850,A -135.000,B 0.000,C 180.000} C_DIS
LIN {X 1236.623,Y 1153.191,Z 1.850,A -135.000,B 0.000,C 180.000} C_DIS
LIN {X 1235.555,Y 1153.315,Z 1.850,A -135.000,B 0.000,C 180.000} C_DIS
LIN {X 1234.487,Y 1152.975,Z 1.850,A -135.000,B 0.000,C 180.000} C_DIS
LIN {X 1233.520,Y 1152.139,Z 1.850,A -135.000,B 0.000,C 180.000} C_DIS
LIN {X 1229.481,Y 1152.139,Z 1.850,A -135.000,B 0.000,C 180.000} C_DIS
LIN {X 1229.146,Y 1152.428,Z 1.850,A -135.000,B 0.000,C 180.000} C_DIS
LIN {X 1228.078,Y 1153.191,Z 1.850,A -135.000,B 0.000,C 180.000} C_DIS
LIN {X 1227.010,Y 1153.315,Z 1.850,A -135.000,B 0.000,C 180.000} C_DIS
LIN {X 1225.942,Y 1152.975,Z 1.850,A -135.000,B 0.000,C 180.000} C_DIS
LIN {X 1224.974,Y 1152.139,Z 1.850,A -135.000,B 0.000,C 180.000} C_DIS
LIN {X 1220.936,Y 1152.139,Z 1.850,A -135.000,B 0.000,C 180.000} C_DIS
LIN {X 1220.601,Y 1152.428,Z 1.850,A -135.000,B 0.000,C 180.000} C_DIS
LIN {X 1219.533,Y 1153.191,Z 1.850,A -135.000,B 0.000,C 180.000} C_DIS
LIN {X 1218.465,Y 1153.315,Z 1.850,A -135.000,B 0.000,C 180.000} C_DIS
LIN {X 1217.397,Y 1152.975,Z 1.850,A -135.000,B 0.000,C 180.000} C_DIS
LIN {X 1216.429,Y 1152.139,Z 1.850,A -135.000,B 0.000,C 180.000} C_DIS
LIN {X 1212.391,Y 1152.139,Z 1.850,A -135.000,B 0.000,C 180.000} C_DIS
LIN {X 1212.056,Y 1152.428,Z 1.850,A -135.000,B 0.000,C 180.000} C_DIS
LIN {X 1210.988,Y 1153.191,Z 1.850,A -135.000,B 0.000,C 180.000} C_DIS
LIN {X 1209.920,Y 1153.315,Z 1.850,A -135.000,B 0.000,C 180.000} C_DIS
LIN {X 1208.852,Y 1152.975,Z 1.850,A -135.000,B 0.000,C 180.000} C_DIS
LIN {X 1207.884,Y 1152.139,Z 1.850,A -135.000,B 0.000,C 180.000} C_DIS
LIN {X 1203.846,Y 1152.139,Z 1.850,A -135.000,B 0.000,C 180.000} C_DIS
LIN {X 1203.511,Y 1152.428,Z 1.850,A -135.000,B 0.000,C 180.000} C_DIS
LIN {X 1202.443,Y 1153.191,Z 1.850,A -135.000,B 0.000,C 180.000} C_DIS
LIN {X 1201.375,Y 1153.315,Z 1.850,A -135.000,B 0.000,C 180.000} C_DIS
LIN {X 1200.307,Y 1152.975,Z 1.850,A -135.000,B 0.000,C 180.000} C_DIS
LIN {X 1199.339,Y 1152.139,Z 1.850,A -135.000,B 0.000,C 180.000} C_DIS
LIN {X 1195.301,Y 1152.139,Z 1.850,A -135.000,B 0.000,C 180.000} C_DIS
LIN {X 1194.966,Y 1152.428,Z 1.850,A -135.000,B 0.000,C 180.000} C_DIS
LIN {X 1193.898,Y 1153.191,Z 1.850,A -135.000,B 0.000,C 180.000} C_DIS
LIN {X 1192.830,Y 1153.315,Z 1.850,A -135.000,B 0.000,C 180.000} C_DIS
LIN {X 1191.761,Y 1152.975,Z 1.850,A -135.000,B 0.000,C 180.000} C_DIS
LIN {X 1190.794,Y 1152.139,Z 1.850,A -135.000,B 0.000,C 180.000} C_DIS
LIN {X 1186.756,Y 1152.139,Z 1.850,A -135.000,B 0.000,C 180.000} C_DIS
LIN {X 1186.421,Y 1152.428,Z 1.850,A -135.000,B 0.000,C 180.000} C_DIS
LIN {X 1185.353,Y 1153.191,Z 1.850,A -135.000,B 0.000,C 180.000} C_DIS
LIN {X 1184.285,Y 1153.315,Z 1.850,A -135.000,B 0.000,C 180.000} C_DIS
LIN {X 1183.216,Y 1152.975,Z 1.850,A -135.000,B 0.000,C 180.000} C_DIS
LIN {X 1182.249,Y 1152.139,Z 1.850,A -135.000,B 0.000,C 180.000} C_DIS
LIN {X 1178.210,Y 1152.139,Z 1.850,A -135.000,B 0.000,C 180.000} C_DIS
LIN {X 1177.876,Y 1152.428,Z 1.850,A -135.000,B 0.000,C 180.000} C_DIS
LIN {X 1176.807,Y 1153.191,Z 1.850,A -135.000,B 0.000,C 180.000} C_DIS
LIN {X 1175.739,Y 1153.315,Z 1.850,A -135.000,B 0.000,C 180.000} C_DIS
LIN {X 1174.671,Y 1152.975,Z 1.850,A -135.000,B 0.000,C 180.000} C_DIS
LIN {X 1173.703,Y 1152.139,Z 1.850,A -135.000,B 0.000,C 180.000} C_DIS
LIN {X 1169.665,Y 1152.139,Z 1.850,A -135.000,B 0.000,C 180.000} C_DIS
LIN {X 1169.331,Y 1152.428,Z 1.850,A -135.000,B 0.000,C 180.000} C_DIS
LIN {X 1168.262,Y 1153.191,Z 1.850,A -135.000,B 0.000,C 180.000} C_DIS
LIN {X 1167.194,Y 1153.315,Z 1.850,A -135.000,B 0.000,C 180.000} C_DIS
LIN {X 1166.126,Y 1152.975,Z 1.850,A -135.000,B 0.000,C 180.000} C_DIS
LIN {X 1165.158,Y 1152.139,Z 1.850,A -135.000,B 0.000,C 180.000} C_DIS
LIN {X 1161.120,Y 1152.139,Z 1.850,A -135.000,B 0.000,C 180.000} C_DIS
LIN {X 1160.785,Y 1152.428,Z 1.850,A -135.000,B 0.000,C 180.000} C_DIS
LIN {X 1159.717,Y 1153.191,Z 1.850,A -135.000,B 0.000,C 180.000} C_DIS
LIN {X 1158.649,Y 1153.315,Z 1.850,A -135.000,B 0.000,C 180.000} C_DIS
LIN {X 1157.581,Y 1152.975,Z 1.850,A -135.000,B 0.000,C 180.000} C_DIS
LIN {X 1156.613,Y 1152.139,Z 1.850,A -135.000,B 0.000,C 180.000} C_DIS
LIN {X 1152.575,Y 1152.139,Z 1.850,A -135.000,B 0.000,C 180.000} C_DIS
LIN {X 1152.240,Y 1152.428,Z 1.850,A -135.000,B 0.000,C 180.000} C_DIS
LIN {X 1152.139,Y 1152.501,Z 1.850,A -135.000,B 0.000,C 180.000} C_DIS
LIN {X 1152.139,Y 1156.412,Z 1.850,A -135.000,B 0.000,C 180.000} C_DIS
LIN {X 1152.240,Y 1156.325,Z 1.850,A -135.000,B 0.000,C 180.000} C_DIS
LIN {X 1153.308,Y 1155.562,Z 1.850,A -135.000,B 0.000,C 180.000} C_DIS
LIN {X 1154.377,Y 1155.438,Z 1.850,A -135.000,B 0.000,C 180.000} C_DIS
LIN {X 1155.445,Y 1155.778,Z 1.850,A -135.000,B 0.000,C 180.000} C_DIS
LIN {X 1156.513,Y 1156.701,Z 1.850,A -135.000,B 0.000,C 180.000} C_DIS
LIN {X 1157.581,Y 1157.464,Z 1.850,A -135.000,B 0.000,C 180.000} C_DIS
LIN {X 1158.649,Y 1157.587,Z 1.850,A -135.000,B 0.000,C 180.000} C_DIS
LIN {X 1159.717,Y 1157.248,Z 1.850,A -135.000,B 0.000,C 180.000} C_DIS
LIN {X 1160.785,Y 1156.325,Z 1.850,A -135.000,B 0.000,C 180.000} C_DIS
LIN {X 1161.854,Y 1155.562,Z 1.850,A -135.000,B 0.000,C 180.000} C_DIS
LIN {X 1162.922,Y 1155.438,Z 1.850,A -135.000,B 0.000,C 180.000} C_DIS
LIN {X 1163.990,Y 1155.778,Z 1.850,A -135.000,B 0.000,C 180.000} C_DIS
LIN {X 1165.058,Y 1156.701,Z 1.850,A -135.000,B 0.000,C 180.000} C_DIS
LIN {X 1166.126,Y 1157.464,Z 1.850,A -135.000,B 0.000,C 180.000} C_DIS
LIN {X 1167.194,Y 1157.587,Z 1.850,A -135.000,B 0.000,C 180.000} C_DIS
LIN {X 1168.262,Y 1157.248,Z 1.850,A -135.000,B 0.000,C 180.000} C_DIS
LIN {X 1169.331,Y 1156.325,Z 1.850,A -135.000,B 0.000,C 180.000} C_DIS
LIN {X 1170.399,Y 1155.562,Z 1.850,A -135.000,B 0.000,C 180.000} C_DIS
LIN {X 1171.467,Y 1155.438,Z 1.850,A -135.000,B 0.000,C 180.000} C_DIS
LIN {X 1172.535,Y 1155.778,Z 1.850,A -135.000,B 0.000,C 180.000} C_DIS
LIN {X 1173.603,Y 1156.701,Z 1.850,A -135.000,B 0.000,C 180.000} C_DIS
LIN {X 1174.671,Y 1157.464,Z 1.850,A -135.000,B 0.000,C 180.000} C_DIS
LIN {X 1175.739,Y 1157.587,Z 1.850,A -135.000,B 0.000,C 180.000} C_DIS
LIN {X 1176.807,Y 1157.248,Z 1.850,A -135.000,B 0.000,C 180.000} C_DIS
LIN {X 1177.876,Y 1156.325,Z 1.850,A -135.000,B 0.000,C 180.000} C_DIS
LIN {X 1178.944,Y 1155.562,Z 1.850,A -135.000,B 0.000,C 180.000} C_DIS
LIN {X 1180.012,Y 1155.438,Z 1.850,A -135.000,B 0.000,C 180.000} C_DIS
LIN {X 1181.080,Y 1155.778,Z 1.850,A -135.000,B 0.000,C 180.000} C_DIS
LIN {X 1182.148,Y 1156.701,Z 1.850,A -135.000,B 0.000,C 180.000} C_DIS
LIN {X 1183.216,Y 1157.464,Z 1.850,A -135.000,B 0.000,C 180.000} C_DIS
LIN {X 1184.285,Y 1157.587,Z 1.850,A -135.000,B 0.000,C 180.000} C_DIS
LIN {X 1185.353,Y 1157.248,Z 1.850,A -135.000,B 0.000,C 180.000} C_DIS
LIN {X 1186.421,Y 1156.325,Z 1.850,A -135.000,B 0.000,C 180.000} C_DIS
LIN {X 1187.489,Y 1155.562,Z 1.850,A -135.000,B 0.000,C 180.000} C_DIS
LIN {X 1188.557,Y 1155.438,Z 1.850,A -135.000,B 0.000,C 180.000} C_DIS
LIN {X 1189.625,Y 1155.778,Z 1.850,A -135.000,B 0.000,C 180.000} C_DIS
LIN {X 1190.693,Y 1156.701,Z 1.850,A -135.000,B 0.000,C 180.000} C_DIS
LIN {X 1191.761,Y 1157.464,Z 1.850,A -135.000,B 0.000,C 180.000} C_DIS
LIN {X 1192.830,Y 1157.587,Z 1.850,A -135.000,B 0.000,C 180.000} C_DIS
LIN {X 1193.898,Y 1157.248,Z 1.850,A -135.000,B 0.000,C 180.000} C_DIS
LIN {X 1194.966,Y 1156.325,Z 1.850,A -135.000,B 0.000,C 180.000} C_DIS
LIN {X 1196.034,Y 1155.562,Z 1.850,A -135.000,B 0.000,C 180.000} C_DIS
LIN {X 1197.102,Y 1155.438,Z 1.850,A -135.000,B 0.000,C 180.000} C_DIS
LIN {X 1198.170,Y 1155.778,Z 1.850,A -135.000,B 0.000,C 180.000} C_DIS
LIN {X 1199.239,Y 1156.701,Z 1.850,A -135.000,B 0.000,C 180.000} C_DIS
LIN {X 1200.307,Y 1157.464,Z 1.850,A -135.000,B 0.000,C 180.000} C_DIS
LIN {X 1201.375,Y 1157.587,Z 1.850,A -135.000,B 0.000,C 180.000} C_DIS
LIN {X 1202.443,Y 1157.248,Z 1.850,A -135.000,B 0.000,C 180.000} C_DIS
LIN {X 1203.511,Y 1156.325,Z 1.850,A -135.000,B 0.000,C 180.000} C_DIS
LIN {X 1204.579,Y 1155.562,Z 1.850,A -135.000,B 0.000,C 180.000} C_DIS
LIN {X 1205.647,Y 1155.438,Z 1.850,A -135.000,B 0.000,C 180.000} C_DIS
LIN {X 1206.715,Y 1155.778,Z 1.850,A -135.000,B 0.000,C 180.000} C_DIS
LIN {X 1207.784,Y 1156.701,Z 1.850,A -135.000,B 0.000,C 180.000} C_DIS
LIN {X 1208.852,Y 1157.464,Z 1.850,A -135.000,B 0.000,C 180.000} C_DIS
LIN {X 1209.920,Y 1157.587,Z 1.850,A -135.000,B 0.000,C 180.000} C_DIS
LIN {X 1210.988,Y 1157.248,Z 1.850,A -135.000,B 0.000,C 180.000} C_DIS
LIN {X 1212.056,Y 1156.325,Z 1.850,A -135.000,B 0.000,C 180.000} C_DIS
LIN {X 1213.124,Y 1155.562,Z 1.850,A -135.000,B 0.000,C 180.000} C_DIS
LIN {X 1214.193,Y 1155.438,Z 1.850,A -135.000,B 0.000,C 180.000} C_DIS
LIN {X 1215.261,Y 1155.778,Z 1.850,A -135.000,B 0.000,C 180.000} C_DIS
LIN {X 1216.329,Y 1156.701,Z 1.850,A -135.000,B 0.000,C 180.000} C_DIS
LIN {X 1217.397,Y 1157.464,Z 1.850,A -135.000,B 0.000,C 180.000} C_DIS
LIN {X 1218.465,Y 1157.587,Z 1.850,A -135.000,B 0.000,C 180.000} C_DIS
LIN {X 1219.533,Y 1157.248,Z 1.850,A -135.000,B 0.000,C 180.000} C_DIS
LIN {X 1220.601,Y 1156.325,Z 1.850,A -135.000,B 0.000,C 180.000} C_DIS
LIN {X 1221.669,Y 1155.562,Z 1.850,A -135.000,B 0.000,C 180.000} C_DIS
LIN {X 1222.738,Y 1155.438,Z 1.850,A -135.000,B 0.000,C 180.000} C_DIS
LIN {X 1223.806,Y 1155.778,Z 1.850,A -135.000,B 0.000,C 180.000} C_DIS
LIN {X 1224.874,Y 1156.701,Z 1.850,A -135.000,B 0.000,C 180.000} C_DIS
LIN {X 1225.942,Y 1157.464,Z 1.850,A -135.000,B 0.000,C 180.000} C_DIS
LIN {X 1227.010,Y 1157.587,Z 1.850,A -135.000,B 0.000,C 180.000} C_DIS
LIN {X 1228.078,Y 1157.248,Z 1.850,A -135.000,B 0.000,C 180.000} C_DIS
LIN {X 1229.146,Y 1156.325,Z 1.850,A -135.000,B 0.000,C 180.000} C_DIS
LIN {X 1230.215,Y 1155.562,Z 1.850,A -135.000,B 0.000,C 180.000} C_DIS
LIN {X 1231.283,Y 1155.438,Z 1.850,A -135.000,B 0.000,C 180.000} C_DIS
LIN {X 1232.351,Y 1155.778,Z 1.850,A -135.000,B 0.000,C 180.000} C_DIS
LIN {X 1233.419,Y 1156.701,Z 1.850,A -135.000,B 0.000,C 180.000} C_DIS
LIN {X 1234.487,Y 1157.464,Z 1.850,A -135.000,B 0.000,C 180.000} C_DIS
LIN {X 1235.555,Y 1157.587,Z 1.850,A -135.000,B 0.000,C 180.000} C_DIS
LIN {X 1236.623,Y 1157.248,Z 1.850,A -135.000,B 0.000,C 180.000} C_DIS
LIN {X 1237.692,Y 1156.325,Z 1.850,A -135.000,B 0.000,C 180.000} C_DIS
LIN {X 1238.760,Y 1155.562,Z 1.850,A -135.000,B 0.000,C 180.000} C_DIS
LIN {X 1239.828,Y 1155.438,Z 1.850,A -135.000,B 0.000,C 180.000} C_DIS
LIN {X 1240.896,Y 1155.778,Z 1.850,A -135.000,B 0.000,C 180.000} C_DIS
LIN {X 1241.964,Y 1156.701,Z 1.850,A -135.000,B 0.000,C 180.000} C_DIS
LIN {X 1243.032,Y 1157.464,Z 1.850,A -135.000,B 0.000,C 180.000} C_DIS
LIN {X 1244.100,Y 1157.587,Z 1.850,A -135.000,B 0.000,C 180.000} C_DIS
LIN {X 1245.169,Y 1157.248,Z 1.850,A -135.000,B 0.000,C 180.000} C_DIS
LIN {X 1246.237,Y 1156.325,Z 1.850,A -135.000,B 0.000,C 180.000} C_DIS
LIN {X 1247.305,Y 1155.562,Z 1.850,A -135.000,B 0.000,C 180.000} C_DIS
LIN {X 1247.861,Y 1155.497,Z 1.850,A -135.000,B 0.000,C 180.000} C_DIS
LIN {X 1247.861,Y 1159.874,Z 1.850,A -135.000,B 0.000,C 180.000} C_DIS
LIN {X 1247.305,Y 1160.050,Z 1.850,A -135.000,B 0.000,C 180.000} C_DIS
LIN {X 1246.237,Y 1160.974,Z 1.850,A -135.000,B 0.000,C 180.000} C_DIS
LIN {X 1245.169,Y 1161.737,Z 1.850,A -135.000,B 0.000,C 180.000} C_DIS
LIN {X 1244.100,Y 1161.860,Z 1.850,A -135.000,B 0.000,C 180.000} C_DIS
LIN {X 1243.032,Y 1161.521,Z 1.850,A -135.000,B 0.000,C 180.000} C_DIS
LIN {X 1241.964,Y 1160.597,Z 1.850,A -135.000,B 0.000,C 180.000} C_DIS
LIN {X 1240.896,Y 1159.834,Z 1.850,A -135.000,B 0.000,C 180.000} C_DIS
LIN {X 1239.828,Y 1159.711,Z 1.850,A -135.000,B 0.000,C 180.000} C_DIS
LIN {X 1238.760,Y 1160.050,Z 1.850,A -135.000,B 0.000,C 180.000} C_DIS
LIN {X 1237.692,Y 1160.974,Z 1.850,A -135.000,B 0.000,C 180.000} C_DIS
LIN {X 1236.623,Y 1161.737,Z 1.850,A -135.000,B 0.000,C 180.000} C_DIS
LIN {X 1235.555,Y 1161.860,Z 1.850,A -135.000,B 0.000,C 180.000} C_DIS
LIN {X 1234.487,Y 1161.521,Z 1.850,A -135.000,B 0.000,C 180.000} C_DIS
LIN {X 1233.419,Y 1160.597,Z 1.850,A -135.000,B 0.000,C 180.000} C_DIS
LIN {X 1232.351,Y 1159.834,Z 1.850,A -135.000,B 0.000,C 180.000} C_DIS
LIN {X 1231.283,Y 1159.711,Z 1.850,A -135.000,B 0.000,C 180.000} C_DIS
LIN {X 1230.215,Y 1160.050,Z 1.850,A -135.000,B 0.000,C 180.000} C_DIS
LIN {X 1229.146,Y 1160.974,Z 1.850,A -135.000,B 0.000,C 180.000} C_DIS
LIN {X 1228.078,Y 1161.737,Z 1.850,A -135.000,B 0.000,C 180.000} C_DIS
LIN {X 1227.010,Y 1161.860,Z 1.850,A -135.000,B 0.000,C 180.000} C_DIS
LIN {X 1225.942,Y 1161.521,Z 1.850,A -135.000,B 0.000,C 180.000} C_DIS
LIN {X 1224.874,Y 1160.597,Z 1.850,A -135.000,B 0.000,C 180.000} C_DIS
LIN {X 1223.806,Y 1159.834,Z 1.850,A -135.000,B 0.000,C 180.000} C_DIS
LIN {X 1222.738,Y 1159.711,Z 1.850,A -135.000,B 0.000,C 180.000} C_DIS
LIN {X 1221.669,Y 1160.050,Z 1.850,A -135.000,B 0.000,C 180.000} C_DIS
LIN {X 1220.601,Y 1160.974,Z 1.850,A -135.000,B 0.000,C 180.000} C_DIS
LIN {X 1219.533,Y 1161.737,Z 1.850,A -135.000,B 0.000,C 180.000} C_DIS
LIN {X 1218.465,Y 1161.860,Z 1.850,A -135.000,B 0.000,C 180.000} C_DIS
LIN {X 1217.397,Y 1161.521,Z 1.850,A -135.000,B 0.000,C 180.000} C_DIS
LIN {X 1216.329,Y 1160.597,Z 1.850,A -135.000,B 0.000,C 180.000} C_DIS
LIN {X 1215.261,Y 1159.834,Z 1.850,A -135.000,B 0.000,C 180.000} C_DIS
LIN {X 1214.193,Y 1159.711,Z 1.850,A -135.000,B 0.000,C 180.000} C_DIS
LIN {X 1213.124,Y 1160.050,Z 1.850,A -135.000,B 0.000,C 180.000} C_DIS
LIN {X 1212.056,Y 1160.974,Z 1.850,A -135.000,B 0.000,C 180.000} C_DIS
LIN {X 1210.988,Y 1161.737,Z 1.850,A -135.000,B 0.000,C 180.000} C_DIS
LIN {X 1209.920,Y 1161.860,Z 1.850,A -135.000,B 0.000,C 180.000} C_DIS
LIN {X 1208.852,Y 1161.521,Z 1.850,A -135.000,B 0.000,C 180.000} C_DIS
LIN {X 1207.784,Y 1160.597,Z 1.850,A -135.000,B 0.000,C 180.000} C_DIS
LIN {X 1206.715,Y 1159.834,Z 1.850,A -135.000,B 0.000,C 180.000} C_DIS
LIN {X 1205.647,Y 1159.711,Z 1.850,A -135.000,B 0.000,C 180.000} C_DIS
LIN {X 1204.579,Y 1160.050,Z 1.850,A -135.000,B 0.000,C 180.000} C_DIS
LIN {X 1203.511,Y 1160.974,Z 1.850,A -135.000,B 0.000,C 180.000} C_DIS
LIN {X 1202.443,Y 1161.737,Z 1.850,A -135.000,B 0.000,C 180.000} C_DIS
LIN {X 1201.375,Y 1161.860,Z 1.850,A -135.000,B 0.000,C 180.000} C_DIS
LIN {X 1200.307,Y 1161.521,Z 1.850,A -135.000,B 0.000,C 180.000} C_DIS
LIN {X 1199.239,Y 1160.597,Z 1.850,A -135.000,B 0.000,C 180.000} C_DIS
LIN {X 1198.170,Y 1159.834,Z 1.850,A -135.000,B 0.000,C 180.000} C_DIS
LIN {X 1197.102,Y 1159.711,Z 1.850,A -135.000,B 0.000,C 180.000} C_DIS
LIN {X 1196.034,Y 1160.050,Z 1.850,A -135.000,B 0.000,C 180.000} C_DIS
LIN {X 1194.966,Y 1160.974,Z 1.850,A -135.000,B 0.000,C 180.000} C_DIS
LIN {X 1193.898,Y 1161.737,Z 1.850,A -135.000,B 0.000,C 180.000} C_DIS
LIN {X 1192.830,Y 1161.860,Z 1.850,A -135.000,B 0.000,C 180.000} C_DIS
LIN {X 1191.761,Y 1161.521,Z 1.850,A -135.000,B 0.000,C 180.000} C_DIS
LIN {X 1190.693,Y 1160.597,Z 1.850,A -135.000,B 0.000,C 180.000} C_DIS
LIN {X 1189.625,Y 1159.834,Z 1.850,A -135.000,B 0.000,C 180.000} C_DIS
LIN {X 1188.557,Y 1159.711,Z 1.850,A -135.000,B 0.000,C 180.000} C_DIS
LIN {X 1187.489,Y 1160.050,Z 1.850,A -135.000,B 0.000,C 180.000} C_DIS
LIN {X 1186.421,Y 1160.974,Z 1.850,A -135.000,B 0.000,C 180.000} C_DIS
LIN {X 1185.353,Y 1161.737,Z 1.850,A -135.000,B 0.000,C 180.000} C_DIS
LIN {X 1184.285,Y 1161.860,Z 1.850,A -135.000,B 0.000,C 180.000} C_DIS
LIN {X 1183.216,Y 1161.521,Z 1.850,A -135.000,B 0.000,C 180.000} C_DIS
LIN {X 1182.148,Y 1160.597,Z 1.850,A -135.000,B 0.000,C 180.000} C_DIS
LIN {X 1181.080,Y 1159.834,Z 1.850,A -135.000,B 0.000,C 180.000} C_DIS
LIN {X 1180.012,Y 1159.711,Z 1.850,A -135.000,B 0.000,C 180.000} C_DIS
LIN {X 1178.944,Y 1160.050,Z 1.850,A -135.000,B 0.000,C 180.000} C_DIS
LIN {X 1177.876,Y 1160.974,Z 1.850,A -135.000,B 0.000,C 180.000} C_DIS
LIN {X 1176.807,Y 1161.737,Z 1.850,A -135.000,B 0.000,C 180.000} C_DIS
LIN {X 1175.739,Y 1161.860,Z 1.850,A -135.000,B 0.000,C 180.000} C_DIS
LIN {X 1174.671,Y 1161.521,Z 1.850,A -135.000,B 0.000,C 180.000} C_DIS
LIN {X 1173.603,Y 1160.597,Z 1.850,A -135.000,B 0.000,C 180.000} C_DIS
LIN {X 1172.535,Y 1159.834,Z 1.850,A -135.000,B 0.000,C 180.000} C_DIS
LIN {X 1171.467,Y 1159.711,Z 1.850,A -135.000,B 0.000,C 180.000} C_DIS
LIN {X 1170.399,Y 1160.050,Z 1.850,A -135.000,B 0.000,C 180.000} C_DIS
LIN {X 1169.331,Y 1160.974,Z 1.850,A -135.000,B 0.000,C 180.000} C_DIS
LIN {X 1168.262,Y 1161.737,Z 1.850,A -135.000,B 0.000,C 180.000} C_DIS
LIN {X 1167.194,Y 1161.860,Z 1.850,A -135.000,B 0.000,C 180.000} C_DIS
LIN {X 1166.126,Y 1161.521,Z 1.850,A -135.000,B 0.000,C 180.000} C_DIS
LIN {X 1165.058,Y 1160.597,Z 1.850,A -135.000,B 0.000,C 180.000} C_DIS
LIN {X 1163.990,Y 1159.834,Z 1.850,A -135.000,B 0.000,C 180.000} C_DIS
LIN {X 1162.922,Y 1159.711,Z 1.850,A -135.000,B 0.000,C 180.000} C_DIS
LIN {X 1161.854,Y 1160.050,Z 1.850,A -135.000,B 0.000,C 180.000} C_DIS
LIN {X 1160.785,Y 1160.974,Z 1.850,A -135.000,B 0.000,C 180.000} C_DIS
LIN {X 1159.717,Y 1161.737,Z 1.850,A -135.000,B 0.000,C 180.000} C_DIS
LIN {X 1158.649,Y 1161.860,Z 1.850,A -135.000,B 0.000,C 180.000} C_DIS
LIN {X 1157.581,Y 1161.521,Z 1.850,A -135.000,B 0.000,C 180.000} C_DIS
LIN {X 1156.513,Y 1160.597,Z 1.850,A -135.000,B 0.000,C 180.000} C_DIS
LIN {X 1155.445,Y 1159.834,Z 1.850,A -135.000,B 0.000,C 180.000} C_DIS
LIN {X 1154.377,Y 1159.711,Z 1.850,A -135.000,B 0.000,C 180.000} C_DIS
LIN {X 1153.308,Y 1160.050,Z 1.850,A -135.000,B 0.000,C 180.000} C_DIS
LIN {X 1152.240,Y 1160.974,Z 1.850,A -135.000,B 0.000,C 180.000} C_DIS
LIN {X 1152.139,Y 1161.046,Z 1.850,A -135.000,B 0.000,C 180.000} C_DIS
LIN {X 1152.139,Y 1164.957,Z 1.850,A -135.000,B 0.000,C 180.000} C_DIS
LIN {X 1152.240,Y 1164.870,Z 1.850,A -135.000,B 0.000,C 180.000} C_DIS
LIN {X 1153.308,Y 1164.107,Z 1.850,A -135.000,B 0.000,C 180.000} C_DIS
LIN {X 1154.377,Y 1163.983,Z 1.850,A -135.000,B 0.000,C 180.000} C_DIS
LIN {X 1155.445,Y 1164.323,Z 1.850,A -135.000,B 0.000,C 180.000} C_DIS
LIN {X 1156.513,Y 1165.246,Z 1.850,A -135.000,B 0.000,C 180.000} C_DIS
LIN {X 1157.581,Y 1166.009,Z 1.850,A -135.000,B 0.000,C 180.000} C_DIS
LIN {X 1158.649,Y 1166.133,Z 1.850,A -135.000,B 0.000,C 180.000} C_DIS
LIN {X 1159.717,Y 1165.793,Z 1.850,A -135.000,B 0.000,C 180.000} C_DIS
LIN {X 1160.785,Y 1164.870,Z 1.850,A -135.000,B 0.000,C 180.000} C_DIS
LIN {X 1161.854,Y 1164.107,Z 1.850,A -135.000,B 0.000,C 180.000} C_DIS
LIN {X 1162.587,Y 1164.022,Z 1.850,A -135.000,B 0.000,C 180.000} C_DIS
LIN {X 1162.587,Y 1168.362,Z 1.850,A -135.000,B 0.000,C 180.000} C_DIS
LIN {X 1161.854,Y 1168.595,Z 1.850,A -135.000,B 0.000,C 180.000} C_DIS
LIN {X 1160.785,Y 1169.519,Z 1.850,A -135.000,B 0.000,C 180.000} C_DIS
LIN {X 1159.717,Y 1170.282,Z 1.850,A -135.000,B 0.000,C 180.000} C_DIS
LIN {X 1158.649,Y 1170.405,Z 1.850,A -135.000,B 0.000,C 180.000} C_DIS
LIN {X 1157.581,Y 1170.066,Z 1.850,A -135.000,B 0.000,C 180.000} C_DIS
LIN {X 1156.513,Y 1169.142,Z 1.850,A -135.000,B 0.000,C 180.000} C_DIS
LIN {X 1155.445,Y 1168.379,Z 1.850,A -135.000,B 0.000,C 180.000} C_DIS
LIN {X 1154.377,Y 1168.256,Z 1.850,A -135.000,B 0.000,C 180.000} C_DIS
LIN {X 1153.308,Y 1168.595,Z 1.850,A -135.000,B 0.000,C 180.000} C_DIS
LIN {X 1152.240,Y 1169.519,Z 1.850,A -135.000,B 0.000,C 180.000} C_DIS
LIN {X 1152.139,Y 1169.591,Z 1.850,A -135.000,B 0.000,C 180.000} C_DIS
LIN {X 1152.139,Y 1173.503,Z 1.850,A -135.000,B 0.000,C 180.000} C_DIS
LIN {X 1152.240,Y 1173.415,Z 1.850,A -135.000,B 0.000,C 180.000} C_DIS
LIN {X 1153.308,Y 1172.652,Z 1.850,A -135.000,B 0.000,C 180.000} C_DIS
LIN {X 1154.377,Y 1172.529,Z 1.850,A -135.000,B 0.000,C 180.000} C_DIS
LIN {X 1155.445,Y 1172.868,Z 1.850,A -135.000,B 0.000,C 180.000} C_DIS
LIN {X 1156.513,Y 1173.791,Z 1.850,A -135.000,B 0.000,C 180.000} C_DIS
LIN {X 1157.581,Y 1174.554,Z 1.850,A -135.000,B 0.000,C 180.000} C_DIS
LIN {X 1158.649,Y 1174.678,Z 1.850,A -135.000,B 0.000,C 180.000} C_DIS
LIN {X 1159.717,Y 1174.338,Z 1.850,A -135.000,B 0.000,C 180.000} C_DIS
LIN {X 1160.785,Y 1173.415,Z 1.850,A -135.000,B 0.000,C 180.000} C_DIS
LIN {X 1161.854,Y 1172.652,Z 1.850,A -135.000,B 0.000,C 180.000} C_DIS