LIN {X 1182.335,Y 1191.979,Z 30.050,A -135.000,B 0.000,C 180.000} C_DIS
LIN {X 1171.885,Y 1181.530,Z 30.050,A -135.000,B 0.000,C 180.000} C_DIS
LIN {X 1171.885,Y 1182.096,Z 30.050,A -135.000,B 0.000,C 180.000} C_DIS
LIN {X 1182.334,Y 1192.545,Z 30.050,A -135.000,B 0.000,C 180.000} C_DIS
LIN {X 1182.334,Y 1193.111,Z 30.050,A -135.000,B 0.000,C 180.000} C_DIS
LIN {X 1171.885,Y 1182.661,Z 30.050,A -135.000,B 0.000,C 180.000} C_DIS
LIN {X 1171.885,Y 1183.227,Z 30.050,A -135.000,B 0.000,C 180.000} C_DIS
LIN {X 1182.334,Y 1193.677,Z 30.050,A -135.000,B 0.000,C 180.000} C_DIS
LIN {X 1182.334,Y 1194.242,Z 30.050,A -135.000,B 0.000,C 180.000} C_DIS
LIN {X 1171.885,Y 1183.793,Z 30.050,A -135.000,B 0.000,C 180.000} C_DIS
LIN {X 1171.885,Y 1184.358,Z 30.050,A -135.000,B 0.000,C 180.000} C_DIS
LIN {X 1182.334,Y 1194.808,Z 30.050,A -135.000,B 0.000,C 180.000} C_DIS
LIN {X 1182.334,Y 1195.373,Z 30.050,A -135.000,B 0.000,C 180.000} C_DIS
LIN {X 1171.885,Y 1184.924,Z 30.050,A -135.000,B 0.000,C 180.000} C_DIS
LIN {X 1171.885,Y 1185.490,Z 30.050,A -135.000,B 0.000,C 180.000} C_DIS
LIN {X 1182.334,Y 1195.939,Z 30.050,A -135.000,B 0.000,C 180.000} C_DIS
LIN {X 1182.334,Y 1196.505,Z 30.050,A -135.000,B 0.000,C 180.000} C_DIS
LIN {X 1171.885,Y 1186.055,Z 30.050,A -135.000,B 0.000,C 180.000} C_DIS
LIN {X 1171.885,Y 1186.621,Z 30.050,A -135.000,B 0.000,C 180.000} C_DIS
LIN {X 1182.334,Y 1197.070,Z 30.050,A -135.000,B 0.000,C 180.000} C_DIS
LIN {X 1182.334,Y 1197.636,Z 30.050,A -135.000,B 0.000,C 180.000} C_DIS
LIN {X 1171.885,Y 1187.187,Z 30.050,A -135.000,B 0.000,C 180.000} C_DIS
LIN {X 1171.885,Y 1187.753,Z 30.050,A -135.000,B 0.000,C 180.000} C_DIS
LIN {X 1182.334,Y 1198.202,Z 30.050,A -135.000,B 0.000,C 180.000} C_DIS
LIN {X 1182.334,Y 1198.767,Z 30.050,A -135.000,B 0.000,C 180.000} C_DIS
